; G-Code generated by Simplify3D(R) Version 3.0.2
; Sep. 29, 2015 at 8:13:27 NACHM.
; Settings Summary
;   processName,ABS Heated
;   applyToModels,KosselProE3DEndEffectorStandard
;   profileName,OpenBeam KosselPro
;   profileVersion,2015-09-24 18:48:56
;   baseProfile,Default
;   printMaterial,ABS
;   printQuality,Medium
;   printExtruders,
;   extruderName,E3Dv6
;   extruderToolheadNumber,0
;   extruderDiameter,0.4
;   extruderAutoWidth,1
;   extruderWidth,0.48
;   extrusionMultiplier,1
;   extruderUseRetract,1
;   extruderRetractionDistance,5
;   extruderExtraRestartDistance,0
;   extruderRetractionZLift,0.2
;   extruderRetractionSpeed,9600
;   extruderUseCoasting,0
;   extruderCoastingDistance,0.2
;   extruderUseWipe,0
;   extruderWipeDistance,5
;   primaryExtruder,0
;   layerHeight,0.2
;   topSolidLayers,3
;   bottomSolidLayers,3
;   perimeterOutlines,2
;   printPerimetersInsideOut,1
;   startPointOption,2
;   startPointOriginX,0
;   startPointOriginY,0
;   startPointOriginZ,300
;   sequentialIslands,0
;   spiralVaseMode,0
;   firstLayerHeightPercentage,75
;   firstLayerWidthPercentage,100
;   firstLayerUnderspeed,0.75
;   useRaft,1
;   raftExtruder,0
;   raftLayers,3
;   raftOffset,3
;   raftSeparationDistance,0.14
;   raftInfill,85
;   disableRaftBaseLayers,0
;   useSkirt,1
;   skirtExtruder,0
;   skirtLayers,1
;   skirtOutlines,1
;   skirtOffset,4
;   usePrimePillar,0
;   primePillarExtruder,999
;   primePillarWidth,12
;   primePillarLocation,7
;   primePillarSpeedMultiplier,1
;   useOozeShield,0
;   oozeShieldExtruder,999
;   oozeShieldOffset,2
;   oozeShieldOutlines,1
;   oozeShieldSidewallShape,1
;   oozeShieldSidewallAngle,30
;   oozeShieldSpeedMultiplier,1
;   infillExtruder,0
;   internalInfillPattern,Rectilinear
;   externalInfillPattern,Rectilinear
;   infillPercentage,50
;   outlineOverlapPercentage,15
;   infillExtrusionWidthPercentage,100
;   minInfillLength,5
;   infillLayerInterval,1
;   infillAngles,45,-45
;   overlapInfillAngles,0
;   generateSupport,1
;   supportExtruder,0
;   supportInfillPercentage,30
;   supportExtraInflation,0
;   denseSupportLayers,0
;   denseSupportInfillPercentage,70
;   supportLayerInterval,1
;   supportHorizontalPartOffset,0.3
;   supportUpperSeparationLayers,1
;   supportLowerSeparationLayers,1
;   supportType,0
;   supportGridSpacing,4
;   maxOverhangAngle,45
;   supportAngles,0
;   temperatureName,E3Dv6 Temperature,Heated Bed Temperature
;   temperatureNumber,0,0
;   temperatureSetpointCount,1,2
;   temperatureSetpointLayers,1,1,2
;   temperatureSetpointTemperatures,240,120,105
;   temperatureStabilizeAtStartup,1,1
;   temperatureHeatedBed,0,1
;   temperatureRelayBetweenLayers,0,0
;   temperatureRelayBetweenLoops,0,0
;   fanLayers,1
;   fanSpeeds,0
;   blipFanToFullPower,0
;   adjustSpeedForCooling,1
;   minSpeedLayerTime,15
;   minCoolingSpeedSlowdown,20
;   increaseFanForCooling,0
;   minFanLayerTime,45
;   maxCoolingFanSpeed,100
;   increaseFanForBridging,0
;   bridgingFanSpeed,100
;   use5D,1
;   relativeEdistances,0
;   allowEaxisZeroing,1
;   independentExtruderAxes,0
;   includeM10123,0
;   stickySupport,1
;   applyToolheadOffsets,0
;   gcodeXoffset,0
;   gcodeYoffset,0
;   gcodeZoffset,0
;   overrideMachineDefinition,1
;   machineTypeOverride,1
;   strokeXoverride,240
;   strokeYoverride,240
;   strokeZoverride,255
;   originOffsetXoverride,120
;   originOffsetYoverride,120
;   originOffsetZoverride,0
;   homeXdirOverride,0
;   homeYdirOverride,0
;   homeZdirOverride,1
;   flipXoverride,-1
;   flipYoverride,1
;   flipZoverride,1
;   toolheadOffsets,0,0|0,0|0,0|0,0|0,0|0,0
;   overrideFirmwareConfiguration,1
;   firmwareTypeOverride,RepRap (Marlin/Repetier/Sprinter)
;   GPXconfigOverride,r2
;   baudRateOverride,250000
;   overridePrinterModels,0
;   printerModelsOverride
;   startingGcode,G28               ; home all axes,;M211 S90      ; S<factor in percent> set extrude factor override percentage
;   layerChangeGcode,
;   retractionGcode,
;   toolChangeGcode,
;   endingGcode,G28;,M104 S0 ; turn off extruder,M140 S0 ; turn off bed,M84 ; disable motors
;   createX3G,0
;   celebration,0
;   celebrationSong,Random Song
;   createMB5G,0
;   postProcessing,
;   defaultSpeed,6000
;   outlineUnderspeed,0.8
;   solidInfillUnderspeed,1
;   supportUnderspeed,0.8
;   rapidXYspeed,9600
;   rapidZspeed,9600
;   minBridgingArea,50
;   bridgingExtraInflation,0
;   bridgingExtrusionMultiplier,1
;   bridgingSpeedMultiplier,1
;   filamentDiameter,1.75
;   filamentPricePerKg,38
;   filamentDensity,1.25
;   useMinPrintHeight,0
;   minPrintHeight,0
;   useMaxPrintHeight,0
;   maxPrintHeight,0
;   useDiaphragm,0
;   diaphragmLayerInterval,20
;   robustSlicing,1
;   mergeAllIntoSolid,0
;   onlyRetractWhenCrossingOutline,1
;   retractBetweenLayers,1
;   useRetractionMinTravel,0
;   retractionMinTravel,3
;   retractWhileWiping,0
;   onlyWipeOutlines,1
;   avoidCrossingOutline,0
;   maxMovementDetourFactor,3
;   toolChangeRetractionDistance,12
;   toolChangeExtraRestartDistance,-0.5
;   toolChangeRetractionSpeed,600
;   allowThinWallGapFill,1
;   thinWallAllowedOverlapPercentage,10
;   horizontalSizeCompensation,0
G90
M82
M106 S0
M140 S120
M190 S120
M104 S240 T0
M109 S240 T0
G28               ; home all axes
;M211 S90      ; S<factor in percent> set extrude factor override percentage
G92 E0
G1 E-5.0000 F9600
G1 Z0.575 F9600
; layer 1, Z = 0.375
T0
; tool H0.500 W0.480
; skirt
G1 X-29.682 Y29.951 F9600
G1 Z0.375 F9600
G1 E0.0000 F2880
G92 E0
G1 X-29.687 Y29.950 E0.0005 F4500
G1 X-29.865 Y29.926 E0.0185
G1 X-29.870 Y29.925 E0.0190
G1 X-30.477 Y29.816 E0.0805
G1 X-30.482 Y29.814 E0.0810
G1 X-30.658 Y29.775 E0.0990
G1 X-30.663 Y29.774 E0.0995
G1 X-31.510 Y29.543 E0.1871
G1 X-31.515 Y29.541 E0.1876
G1 X-31.686 Y29.487 E0.2056
G1 X-31.691 Y29.485 E0.2061
G1 X-32.270 Y29.272 E0.2676
G1 X-32.275 Y29.270 E0.2681
G1 X-32.440 Y29.200 E0.2861
G1 X-32.445 Y29.198 E0.2866
G1 X-33.239 Y28.824 E0.3742
G1 X-33.244 Y28.822 E0.3747
G1 X-33.403 Y28.738 E0.3926
G1 X-33.408 Y28.736 E0.3932
G1 X-33.940 Y28.425 E0.4547
G1 X-33.944 Y28.423 E0.4552
G1 X-34.096 Y28.325 E0.4731
G1 X-34.100 Y28.323 E0.4736
G1 X-34.817 Y27.816 E0.5612
G1 X-34.821 Y27.813 E0.5617
G1 X-34.963 Y27.703 E0.5797
G1 X-34.968 Y27.700 E0.5802
G1 X-35.438 Y27.302 E0.6417
G1 X-35.442 Y27.298 E0.6422
G1 X-35.574 Y27.176 E0.6602
G1 X-35.578 Y27.173 E0.6607
G1 X-36.196 Y26.550 E0.7483
G1 X-36.200 Y26.546 E0.7488
G1 X-36.321 Y26.413 E0.7667
G1 X-36.324 Y26.409 E0.7673
G1 X-36.718 Y25.935 E0.8288
G1 X-36.722 Y25.931 E0.8293
G1 X-36.831 Y25.788 E0.8472
G1 X-36.834 Y25.783 E0.8478
G1 X-37.247 Y25.189 E0.9200
G1 X-37.248 Y25.187 E0.9202
G1 X-37.298 Y25.112 E0.9292
G1 X-37.299 Y25.110 E0.9295
G1 X-37.464 Y24.849 E0.9602
G1 X-37.465 Y24.847 E0.9605
G1 X-37.511 Y24.770 E0.9694
G1 X-37.513 Y24.768 E0.9697
G1 X-42.879 Y15.386 E2.0482
G1 X-42.881 Y15.384 E2.0484
G1 X-42.924 Y15.305 E2.0574
G1 X-42.925 Y15.302 E2.0577
G1 X-43.066 Y15.028 E2.0884
G1 X-43.067 Y15.026 E2.0887
G1 X-43.107 Y14.945 E2.0976
G1 X-43.108 Y14.943 E2.0979
G1 X-43.411 Y14.286 E2.1701
G1 X-43.413 Y14.281 E2.1706
G1 X-43.481 Y14.115 E2.1886
G1 X-43.483 Y14.110 E2.1891
G1 X-43.691 Y13.530 E2.2506
G1 X-43.693 Y13.525 E2.2511
G1 X-43.746 Y13.353 E2.2690
G1 X-43.748 Y13.348 E2.2695
G1 X-43.990 Y12.432 E2.3641
G1 X-43.991 Y12.426 E2.3647
G1 X-44.036 Y12.210 E2.3868
G1 X-44.037 Y12.203 E2.3874
G1 X-44.151 Y11.455 E2.4629
G1 X-44.151 Y11.449 E2.4635
G1 X-44.173 Y11.229 E2.4855
G1 X-44.173 Y11.223 E2.4862
G1 X-44.226 Y10.015 E2.6068
G1 X-44.226 Y10.007 E2.6076
G1 X-44.221 Y9.741 E2.6342
G1 X-44.220 Y9.733 E2.6349
G1 X-44.142 Y8.823 E2.7261
G1 X-44.141 Y8.816 E2.7269
G1 X-44.101 Y8.552 E2.7534
G1 X-44.100 Y8.545 E2.7542
G1 X-43.816 Y7.241 E2.8873
G1 X-43.814 Y7.234 E2.8881
G1 X-43.738 Y6.971 E2.9154
G1 X-43.736 Y6.964 E2.9161
G1 X-43.417 Y6.083 E3.0096
G1 X-43.414 Y6.075 E3.0104
G1 X-43.304 Y5.825 E3.0377
G1 X-43.300 Y5.818 E3.0385
G1 X-43.214 Y5.653 E3.0571
G1 X-43.469 Y5.540 E3.0849
G1 X-43.472 Y5.539 E3.0852
G1 X-43.566 Y5.495 E3.0955
G1 X-43.569 Y5.493 E3.0958
G1 X-43.886 Y5.333 E3.1313
G1 X-43.889 Y5.332 E3.1316
G1 X-43.980 Y5.283 E3.1420
G1 X-43.983 Y5.281 E3.1423
G1 X-52.164 Y0.633 E4.0812
G1 X-52.167 Y0.631 E4.0815
G1 X-52.273 Y0.566 E4.0939
G1 X-52.276 Y0.564 E4.0943
G1 X-52.633 Y0.332 E4.1368
G1 X-52.636 Y0.330 E4.1371
G1 X-52.738 Y0.259 E4.1495
G1 X-52.741 Y0.257 E4.1499
G1 X-53.400 Y-0.231 E4.2317
G1 X-53.404 Y-0.234 E4.2321
G1 X-53.533 Y-0.338 E4.2487
G1 X-53.537 Y-0.341 E4.2492
G1 X-53.965 Y-0.715 E4.3060
G1 X-53.969 Y-0.719 E4.3064
G1 X-54.089 Y-0.833 E4.3230
G1 X-54.093 Y-0.836 E4.3235
G1 X-54.714 Y-1.474 E4.4124
G1 X-54.718 Y-1.478 E4.4129
G1 X-54.829 Y-1.601 E4.4294
G1 X-54.832 Y-1.605 E4.4299
G1 X-55.195 Y-2.043 E4.4867
G1 X-55.198 Y-2.047 E4.4871
G1 X-55.298 Y-2.179 E4.5037
G1 X-55.301 Y-2.183 E4.5042
G1 X-55.865 Y-2.987 E4.6022
G1 X-55.868 Y-2.992 E4.6028
G1 X-55.984 Y-3.178 E4.6247
G1 X-55.988 Y-3.184 E4.6253
G1 X-56.351 Y-3.842 E4.7004
G1 X-56.354 Y-3.848 E4.7010
G1 X-56.450 Y-4.045 E4.7229
G1 X-56.452 Y-4.051 E4.7235
G1 X-56.881 Y-5.069 E4.8337
G1 X-56.882 Y-5.072 E4.8341
G1 X-56.930 Y-5.197 E4.8474
G1 X-56.931 Y-5.201 E4.8478
G1 X-57.081 Y-5.632 E4.8934
G1 X-57.082 Y-5.636 E4.8938
G1 X-57.122 Y-5.763 E4.9071
G1 X-57.123 Y-5.767 E4.9074
G1 X-58.167 Y-9.555 E5.2995
G1 X-58.171 Y-9.578 E5.3019
G1 X-58.230 Y-10.387 E5.3828
G1 X-58.230 Y-10.411 E5.3852
G1 X-57.885 Y-13.189 E5.6645
G1 X-57.879 Y-13.212 E5.6668
G1 X-57.624 Y-13.982 E5.7478
G1 X-57.615 Y-14.003 E5.7501
G1 X-51.558 Y-24.680 E6.9749
G1 X-51.557 Y-24.681 E6.9751
G1 X-51.557 Y-24.681 E6.9751
G1 X-51.556 Y-24.683 E6.9753
G1 X-38.152 Y-48.268 E9.6821
G1 X-38.139 Y-48.287 E9.6845
G1 X-37.608 Y-48.901 E9.7654
G1 X-37.591 Y-48.917 E9.7678
G1 X-35.382 Y-50.637 E10.0471
G1 X-35.362 Y-50.649 E10.0495
G1 X-34.637 Y-51.013 E10.1304
G1 X-34.615 Y-51.022 E10.1328
G1 X-30.850 Y-52.059 E10.5224
G1 X-30.846 Y-52.060 E10.5228
G1 X-30.720 Y-52.090 E10.5357
G1 X-30.716 Y-52.091 E10.5361
G1 X-30.281 Y-52.182 E10.5805
G1 X-30.277 Y-52.183 E10.5809
G1 X-30.149 Y-52.205 E10.5938
G1 X-30.146 Y-52.206 E10.5942
G1 X-29.034 Y-52.366 E10.7063
G1 X-29.027 Y-52.367 E10.7070
G1 X-28.805 Y-52.386 E10.7292
G1 X-28.799 Y-52.387 E10.7299
G1 X-28.035 Y-52.413 E10.8061
G1 X-28.028 Y-52.413 E10.8068
G1 X-27.805 Y-52.409 E10.8290
G1 X-27.799 Y-52.409 E10.8297
G1 X-26.813 Y-52.336 E10.9283
G1 X-26.808 Y-52.336 E10.9288
G1 X-26.643 Y-52.317 E10.9454
G1 X-26.638 Y-52.316 E10.9458
G1 X-26.076 Y-52.229 E11.0026
G1 X-26.071 Y-52.228 E11.0031
G1 X-25.909 Y-52.196 E11.0197
G1 X-25.904 Y-52.195 E11.0201
G1 X-25.037 Y-51.988 E11.1090
G1 X-25.033 Y-51.987 E11.1095
G1 X-24.873 Y-51.942 E11.1261
G1 X-24.868 Y-51.940 E11.1265
G1 X-24.328 Y-51.764 E11.1833
G1 X-24.323 Y-51.762 E11.1838
G1 X-24.167 Y-51.705 E11.2003
G1 X-24.163 Y-51.703 E11.2008
G1 X-23.407 Y-51.387 E11.2826
G1 X-23.404 Y-51.385 E11.2829
G1 X-23.290 Y-51.334 E11.2953
G1 X-23.287 Y-51.333 E11.2957
G1 X-22.905 Y-51.145 E11.3382
G1 X-22.901 Y-51.143 E11.3386
G1 X-22.792 Y-51.085 E11.3510
G1 X-22.788 Y-51.083 E11.3513
G1 X-14.686 Y-46.483 E12.2810
G1 X-14.684 Y-46.482 E12.2813
G1 X-14.608 Y-46.436 E12.2901
G1 X-14.605 Y-46.435 E12.2904
G1 X-14.347 Y-46.273 E12.3208
G1 X-14.345 Y-46.272 E12.3211
G1 X-14.270 Y-46.223 E12.3300
G1 X-14.268 Y-46.221 E12.3302
G1 X-13.471 Y-45.673 E12.4268
G1 X-13.466 Y-45.669 E12.4274
G1 X-13.306 Y-45.547 E12.4475
G1 X-13.301 Y-45.543 E12.4481
G1 X-13.008 Y-45.296 E12.4864
G1 X-11.497 Y-45.921 E12.6495
G1 X-11.451 Y-45.930 E12.6542
G1 X-2.682 Y-45.930 E13.5292
G1 X-2.636 Y-45.921 E13.5339
G1 X-1.122 Y-45.294 E13.6974
G1 X-1.083 Y-45.268 E13.7021
G1 X0.433 Y-43.753 E13.9159
G1 X1.948 Y-45.268 E14.1297
G1 X1.988 Y-45.294 E14.1344
G1 X3.501 Y-45.921 E14.2979
G1 X3.548 Y-45.930 E14.3026
G1 X12.317 Y-45.930 E15.1776
G1 X12.363 Y-45.921 E15.1823
G1 X13.734 Y-45.353 E15.3304
G1 X14.159 Y-45.652 E15.3822
G1 X14.161 Y-45.654 E15.3825
G1 X14.244 Y-45.709 E15.3924
G1 X14.246 Y-45.710 E15.3927
G1 X14.534 Y-45.893 E15.4267
G1 X14.537 Y-45.895 E15.4270
G1 X14.622 Y-45.946 E15.4369
G1 X14.625 Y-45.947 E15.4372
G1 X22.685 Y-50.526 E16.3622
G1 X22.687 Y-50.527 E16.3625
G1 X22.779 Y-50.576 E16.3728
G1 X22.781 Y-50.577 E16.3731
G1 X23.099 Y-50.737 E16.4085
G1 X23.101 Y-50.738 E16.4088
G1 X23.195 Y-50.783 E16.4192
G1 X23.198 Y-50.784 E16.4195
G1 X24.021 Y-51.148 E16.5093
G1 X24.026 Y-51.150 E16.5098
G1 X24.200 Y-51.217 E16.5285
G1 X24.206 Y-51.219 E16.5290
G1 X24.813 Y-51.424 E16.5930
G1 X24.818 Y-51.426 E16.5935
G1 X24.997 Y-51.477 E16.6121
G1 X25.003 Y-51.479 E16.6127
G1 X25.904 Y-51.694 E16.7051
G1 X25.909 Y-51.695 E16.7056
G1 X26.071 Y-51.727 E16.7222
G1 X26.076 Y-51.728 E16.7227
G1 X26.638 Y-51.815 E16.7794
G1 X26.643 Y-51.816 E16.7799
G1 X26.808 Y-51.835 E16.7965
G1 X26.813 Y-51.835 E16.7970
G1 X27.722 Y-51.902 E16.8879
G1 X27.727 Y-51.902 E16.8884
G1 X27.905 Y-51.908 E16.9062
G1 X27.910 Y-51.908 E16.9067
G1 X28.520 Y-51.900 E16.9675
G1 X28.525 Y-51.900 E16.9680
G1 X28.702 Y-51.890 E16.9858
G1 X28.708 Y-51.890 E16.9863
G1 X29.663 Y-51.795 E17.0821
G1 X29.668 Y-51.794 E17.0826
G1 X29.839 Y-51.770 E17.0999
G1 X29.844 Y-51.769 E17.1004
G1 X30.427 Y-51.661 E17.1595
G1 X30.432 Y-51.660 E17.1600
G1 X30.601 Y-51.621 E17.1773
G1 X30.605 Y-51.620 E17.1778
G1 X34.602 Y-50.527 E17.5912
G1 X34.624 Y-50.518 E17.5936
G1 X35.352 Y-50.154 E17.6748
G1 X35.372 Y-50.142 E17.6771
G1 X37.589 Y-48.419 E17.9572
G1 X37.606 Y-48.403 E17.9596
G1 X38.138 Y-47.788 E18.0408
G1 X38.152 Y-47.769 E18.0431
G1 X57.615 Y-13.503 E21.9752
G1 X57.625 Y-13.482 E21.9775
G1 X57.880 Y-12.710 E22.0587
G1 X57.886 Y-12.687 E22.0611
G1 X58.230 Y-9.900 E22.3412
G1 X58.230 Y-9.877 E22.3435
G1 X58.170 Y-9.066 E22.4247
G1 X58.166 Y-9.042 E22.4271
G1 X57.059 Y-5.050 E22.8405
G1 X57.057 Y-5.045 E22.8410
G1 X57.004 Y-4.880 E22.8583
G1 X57.002 Y-4.875 E22.8588
G1 X56.796 Y-4.319 E22.9179
G1 X56.795 Y-4.315 E22.9184
G1 X56.728 Y-4.155 E22.9357
G1 X56.726 Y-4.151 E22.9362
G1 X56.318 Y-3.281 E23.0320
G1 X56.316 Y-3.277 E23.0325
G1 X56.233 Y-3.119 E23.0503
G1 X56.231 Y-3.114 E23.0508
G1 X55.925 Y-2.587 E23.1116
G1 X55.923 Y-2.582 E23.1121
G1 X55.827 Y-2.432 E23.1299
G1 X55.824 Y-2.428 E23.1304
G1 X55.301 Y-1.682 E23.2213
G1 X55.298 Y-1.678 E23.2218
G1 X55.198 Y-1.546 E23.2384
G1 X55.195 Y-1.542 E23.2388
G1 X54.832 Y-1.104 E23.2956
G1 X54.829 Y-1.100 E23.2961
G1 X54.718 Y-0.977 E23.3127
G1 X54.714 Y-0.973 E23.3132
G1 X54.093 Y-0.335 E23.4020
G1 X54.089 Y-0.332 E23.4025
G1 X53.969 Y-0.218 E23.4191
G1 X53.965 Y-0.214 E23.4196
G1 X53.537 Y0.160 E23.4763
G1 X53.533 Y0.163 E23.4768
G1 X53.404 Y0.267 E23.4933
G1 X53.400 Y0.270 E23.4938
G1 X52.741 Y0.758 E23.5756
G1 X52.739 Y0.760 E23.5760
G1 X52.636 Y0.831 E23.5884
G1 X52.633 Y0.833 E23.5887
G1 X52.276 Y1.066 E23.6313
G1 X52.273 Y1.067 E23.6317
G1 X52.166 Y1.132 E23.6441
G1 X52.163 Y1.134 E23.6445
G1 X44.111 Y5.708 E24.5685
G1 X44.142 Y5.767 E24.5751
G1 X44.146 Y5.774 E24.5759
G1 X44.256 Y6.021 E24.6029
G1 X44.259 Y6.028 E24.6037
G1 X44.581 Y6.898 E24.6963
G1 X44.583 Y6.906 E24.6971
G1 X44.660 Y7.165 E24.7241
G1 X44.662 Y7.173 E24.7249
G1 X44.953 Y8.454 E24.8559
G1 X44.954 Y8.461 E24.8567
G1 X44.996 Y8.727 E24.8835
G1 X44.997 Y8.735 E24.8843
G1 X45.082 Y9.653 E24.9764
G1 X45.083 Y9.661 E24.9771
G1 X45.090 Y9.930 E25.0040
G1 X45.090 Y9.938 E25.0048
G1 X45.043 Y11.181 E25.1289
G1 X45.042 Y11.188 E25.1296
G1 X45.021 Y11.413 E25.1521
G1 X45.020 Y11.420 E25.1528
G1 X44.906 Y12.187 E25.2302
G1 X44.905 Y12.194 E25.2309
G1 X44.859 Y12.415 E25.2535
G1 X44.858 Y12.422 E25.2541
G1 X44.614 Y13.348 E25.3497
G1 X44.612 Y13.353 E25.3502
G1 X44.559 Y13.525 E25.3681
G1 X44.557 Y13.530 E25.3687
G1 X44.348 Y14.110 E25.4302
G1 X44.347 Y14.115 E25.4307
G1 X44.278 Y14.281 E25.4487
G1 X44.276 Y14.286 E25.4492
G1 X43.973 Y14.943 E25.5214
G1 X43.972 Y14.946 E25.5217
G1 X43.932 Y15.026 E25.5306
G1 X43.931 Y15.029 E25.5309
G1 X43.790 Y15.302 E25.5616
G1 X43.789 Y15.305 E25.5619
G1 X43.746 Y15.384 E25.5709
G1 X43.745 Y15.386 E25.5711
G1 X38.378 Y24.768 E26.6496
G1 X38.377 Y24.770 E26.6498
