; G-Code generated by Simplify3D(R) Version 3.0.1
; Aug. 1, 2015 at 4:59:09 NACHM.
; Settings Summary
;   processName,ABS Heated
;   applyToModels,KosselProE3DEndEffector51
;   profileName,OpenBeam KosselPro(2)
;   profileVersion,2015-07-07 14:31:48
;   baseProfile,Default
;   printMaterial,ABS
;   printQuality,Medium
;   printExtruders,
;   extruderName,Extruder 1
;   extruderToolheadNumber,0
;   extruderDiameter,0.4
;   extruderAutoWidth,1
;   extruderWidth,0.48
;   extrusionMultiplier,1
;   extruderUseRetract,1
;   extruderRetractionDistance,6
;   extruderExtraRestartDistance,0
;   extruderRetractionZLift,0.3
;   extruderRetractionSpeed,3600
;   extruderUseCoasting,0
;   extruderCoastingDistance,0.2
;   extruderUseWipe,0
;   extruderWipeDistance,5
;   primaryExtruder,0
;   layerHeight,0.2
;   topSolidLayers,3
;   bottomSolidLayers,3
;   perimeterOutlines,2
;   printPerimetersInsideOut,1
;   startPointOption,2
;   startPointOriginX,0
;   startPointOriginY,0
;   startPointOriginZ,300
;   sequentialIslands,0
;   spiralVaseMode,0
;   firstLayerHeightPercentage,90
;   firstLayerWidthPercentage,100
;   firstLayerUnderspeed,0.5
;   useRaft,1
;   raftExtruder,0
;   raftLayers,3
;   raftOffset,3
;   raftSeparationDistance,0.14
;   raftInfill,85
;   disableRaftBaseLayers,0
;   useSkirt,1
;   skirtExtruder,0
;   skirtLayers,1
;   skirtOutlines,2
;   skirtOffset,4
;   usePrimePillar,0
;   primePillarExtruder,999
;   primePillarWidth,12
;   primePillarLocation,7
;   primePillarSpeedMultiplier,1
;   useOozeShield,0
;   oozeShieldExtruder,999
;   oozeShieldOffset,2
;   oozeShieldOutlines,1
;   oozeShieldSidewallShape,1
;   oozeShieldSidewallAngle,30
;   oozeShieldSpeedMultiplier,1
;   infillExtruder,0
;   internalInfillPattern,Rectilinear
;   externalInfillPattern,Rectilinear
;   infillPercentage,50
;   outlineOverlapPercentage,15
;   infillExtrusionWidthPercentage,100
;   minInfillLength,5
;   infillLayerInterval,1
;   infillAngles,45,-45
;   overlapInfillAngles,0
;   generateSupport,1
;   supportExtruder,0
;   supportInfillPercentage,30
;   supportExtraInflation,0
;   denseSupportLayers,0
;   denseSupportInfillPercentage,70
;   supportLayerInterval,1
;   supportHorizontalPartOffset,0.3
;   supportUpperSeparationLayers,1
;   supportLowerSeparationLayers,1
;   supportType,0
;   supportGridSpacing,4
;   maxOverhangAngle,45
;   supportAngles,0
;   temperatureName,Extruder 1 Temperature,Heated Bed
;   temperatureNumber,0,0
;   temperatureSetpointCount,1,1
;   temperatureSetpointLayers,1,1
;   temperatureSetpointTemperatures,230,100
;   temperatureStabilizeAtStartup,1,1
;   temperatureHeatedBed,0,1
;   temperatureRelayBetweenLayers,0,0
;   temperatureRelayBetweenLoops,0,0
;   fanLayers,1
;   fanSpeeds,0
;   blipFanToFullPower,0
;   adjustSpeedForCooling,1
;   minSpeedLayerTime,15
;   minCoolingSpeedSlowdown,20
;   increaseFanForCooling,0
;   minFanLayerTime,45
;   maxCoolingFanSpeed,100
;   increaseFanForBridging,0
;   bridgingFanSpeed,100
;   use5D,1
;   relativeEdistances,0
;   allowEaxisZeroing,1
;   independentExtruderAxes,0
;   includeM10123,0
;   stickySupport,1
;   applyToolheadOffsets,0
;   gcodeXoffset,0
;   gcodeYoffset,0
;   gcodeZoffset,0
;   overrideMachineDefinition,1
;   machineTypeOverride,1
;   strokeXoverride,240
;   strokeYoverride,240
;   strokeZoverride,275
;   originOffsetXoverride,120
;   originOffsetYoverride,120
;   originOffsetZoverride,0
;   homeXdirOverride,0
;   homeYdirOverride,0
;   homeZdirOverride,1
;   flipXoverride,1
;   flipYoverride,-1
;   flipZoverride,1
;   toolheadOffsets,0,0|0,0|0,0|0,0|0,0|0,0
;   overrideFirmwareConfiguration,1
;   firmwareTypeOverride,RepRap (Marlin/Repetier/Sprinter)
;   GPXconfigOverride,r2
;   baudRateOverride,250000
;   overridePrinterModels,0
;   printerModelsOverride
;   startingGcode,G28 ; home all axes,G29 Z.2; Auto calibration
;   layerChangeGcode,
;   retractionGcode,
;   toolChangeGcode,
;   endingGcode,G28 ; Home all axes,M104 S0 ; turn off extruder,M140 S0 ; turn off bed,M84 ; disable motors
;   createX3G,0
;   celebration,0
;   celebrationSong,Random Song
;   createMB5G,0
;   postProcessing,
;   defaultSpeed,3600
;   outlineUnderspeed,0.5
;   solidInfillUnderspeed,0.8
;   supportUnderspeed,0.8
;   rapidXYspeed,4800
;   rapidZspeed,1000
;   minBridgingArea,50
;   bridgingExtraInflation,0
;   bridgingExtrusionMultiplier,1
;   bridgingSpeedMultiplier,1
;   filamentDiameter,1.75
;   filamentPricePerKg,46
;   filamentDensity,1.25
;   useMinPrintHeight,0
;   minPrintHeight,0
;   useMaxPrintHeight,0
;   maxPrintHeight,0
;   useDiaphragm,0
;   diaphragmLayerInterval,20
;   robustSlicing,1
;   mergeAllIntoSolid,0
;   onlyRetractWhenCrossingOutline,1
;   retractBetweenLayers,1
;   useRetractionMinTravel,0
;   retractionMinTravel,3
;   retractWhileWiping,0
;   onlyWipeOutlines,1
;   avoidCrossingOutline,0
;   maxMovementDetourFactor,3
;   toolChangeRetractionDistance,12
;   toolChangeExtraRestartDistance,-0.5
;   toolChangeRetractionSpeed,600
;   allowThinWallGapFill,1
;   thinWallAllowedOverlapPercentage,10
;   horizontalSizeCompensation,0
G90
M82
M106 S0
M140 S100
M190 S100
M104 S230 T0
M109 S230 T0
G28 ; home all axes
G29 Z.2; Auto calibration
G92 E0
G1 E-6.0000 F3600
G1 Z0.750 F1000
; layer 1, Z = 0.45
T0
; tool H0.500 W0.480
; skirt
G1 X-40.822 Y7.042 F4800
G1 Z0.450 F1000
G1 E0.0000 F1080
G92 E0
G1 X-42.666 Y6.711 E0.1869 F1800
G1 X-42.726 Y6.695 E0.1931
G1 X-43.435 Y6.436 E0.2685
G1 X-43.492 Y6.409 E0.2747
G1 X-46.367 Y4.751 E0.6059
G1 X-46.368 Y4.751 E0.6059
G1 X-46.369 Y4.750 E0.6061
G1 X-46.370 Y4.749 E0.6063
G1 X-53.426 Y0.674 E1.4192
G1 X-53.477 Y0.639 E1.4254
G1 X-54.057 Y0.153 E1.5009
G1 X-54.101 Y0.109 E1.5071
G1 X-55.716 Y-1.805 E1.7570
G1 X-55.752 Y-1.856 E1.7633
G1 X-56.133 Y-2.509 E1.8387
G1 X-56.160 Y-2.565 E1.8449
G1 X-58.510 Y-8.909 E2.5200
G1 X-58.529 Y-8.986 E2.5278
G1 X-58.658 Y-9.938 E2.6237
G1 X-58.660 Y-10.017 E2.6316
G1 X-58.391 Y-13.199 E2.9502
G1 X-58.376 Y-13.277 E2.9581
G1 X-58.088 Y-14.194 E3.0540
G1 X-58.056 Y-14.266 E3.0619
G1 X-38.460 Y-48.206 E6.9725
G1 X-38.414 Y-48.270 E6.9803
G1 X-37.764 Y-48.977 E7.0762
G1 X-37.704 Y-49.029 E7.0841
G1 X-35.086 Y-50.853 E7.4025
G1 X-35.016 Y-50.891 E7.4104
G1 X-34.127 Y-51.255 E7.5062
G1 X-34.051 Y-51.277 E7.5141
G1 X-27.380 Y-52.417 E8.1894
G1 X-27.318 Y-52.422 E8.1956
G1 X-26.562 Y-52.420 E8.2711
G1 X-26.500 Y-52.414 E8.2773
G1 X-24.035 Y-51.974 E8.5272
G1 X-23.974 Y-51.958 E8.5334
G1 X-23.264 Y-51.699 E8.6088
G1 X-23.207 Y-51.672 E8.6151
G1 X-18.812 Y-49.139 E9.1212
G1 X-18.812 Y-49.139 E9.1213
G1 X-18.808 Y-49.137 E9.1217
G1 X-18.795 Y-49.129 E9.1232
G1 X-18.795 Y-49.129 E9.1232
G1 X-18.791 Y-49.127 E9.1237
G1 X-18.790 Y-49.126 E9.1238
G1 X-13.751 Y-46.194 E9.7056
G1 X-13.670 Y-46.247 E9.7152
G1 X-12.069 Y-46.910 E9.8881
G1 X-11.930 Y-46.938 E9.9023
G1 X-3.068 Y-46.938 E10.7866
G1 X-2.929 Y-46.910 E10.8007
G1 X-1.328 Y-46.247 E10.9736
G1 X-1.210 Y-46.168 E10.9878
G1 X0.002 Y-44.957 E11.1587
G1 X1.213 Y-46.168 E11.3297
G1 X1.331 Y-46.247 E11.3438
G1 X2.932 Y-46.910 E11.5167
G1 X3.071 Y-46.938 E11.5309
G1 X11.927 Y-46.938 E12.4145
G1 X12.066 Y-46.910 E12.4287
G1 X13.667 Y-46.247 E12.6016
G1 X13.737 Y-46.201 E12.6099
G1 X23.221 Y-51.677 E13.7027
G1 X23.278 Y-51.703 E13.7090
G1 X23.991 Y-51.964 E13.7847
G1 X24.052 Y-51.980 E13.7910
G1 X26.527 Y-52.420 E14.0419
G1 X26.590 Y-52.426 E14.0481
G1 X27.349 Y-52.428 E14.1239
G1 X27.411 Y-52.423 E14.1301
G1 X34.067 Y-51.271 E14.8041
G1 X34.142 Y-51.249 E14.8119
G1 X35.028 Y-50.884 E14.9075
G1 X35.098 Y-50.846 E14.9154
G1 X37.708 Y-49.025 E15.2331
G1 X37.768 Y-48.973 E15.2409
G1 X38.416 Y-48.267 E15.3365
G1 X38.462 Y-48.203 E15.3444
G1 X58.055 Y-14.269 E19.2542
G1 X58.086 Y-14.197 E19.2621
G1 X58.374 Y-13.282 E19.3578
G1 X58.389 Y-13.204 E19.3657
G1 X58.661 Y-10.030 E19.6836
G1 X58.659 Y-9.951 E19.6914
G1 X58.531 Y-9.001 E19.7871
G1 X58.512 Y-8.924 E19.7950
G1 X56.177 Y-2.583 E20.4693
G1 X56.150 Y-2.526 E20.4755
G1 X55.769 Y-1.870 E20.5512
G1 X55.733 Y-1.819 E20.5575
G1 X54.114 Y0.102 E20.8082
G1 X54.069 Y0.147 E20.8144
G1 X53.488 Y0.634 E20.8901
G1 X53.436 Y0.670 E20.8964
G1 X44.143 Y6.033 E21.9671
G1 X44.373 Y6.505 E22.0194
G1 X44.378 Y6.515 E22.0205
G1 X44.433 Y6.637 E22.0340
G1 X44.437 Y6.647 E22.0351
G1 X44.607 Y7.057 E22.0793
G1 X44.611 Y7.067 E22.0804
G1 X44.659 Y7.193 E22.0938
G1 X44.663 Y7.203 E22.0949
G1 X44.917 Y7.944 E22.1730
G1 X44.923 Y7.961 E22.1748
G1 X44.984 Y8.174 E22.1969
G1 X44.989 Y8.191 E22.1988
G1 X45.155 Y8.902 E22.2715
G1 X45.158 Y8.919 E22.2733
G1 X45.198 Y9.137 E22.2954
G1 X45.201 Y9.155 E22.2973
G1 X45.356 Y10.362 E22.4187
G1 X45.358 Y10.385 E22.4210
G1 X45.376 Y10.664 E22.4489
G1 X45.377 Y10.687 E22.4512
G1 X45.377 Y11.609 E22.5431
G1 X45.376 Y11.632 E22.5454
G1 X45.358 Y11.911 E22.5733
G1 X45.356 Y11.934 E22.5756
G1 X45.186 Y13.251 E22.7081
G1 X45.183 Y13.274 E22.7105
G1 X45.127 Y13.557 E22.7393
G1 X45.121 Y13.580 E22.7417
G1 X44.876 Y14.499 E22.8366
G1 X44.870 Y14.522 E22.8389
G1 X44.777 Y14.796 E22.8677
G1 X44.769 Y14.818 E22.8701
G1 X44.347 Y15.836 E22.9801
G1 X44.342 Y15.847 E22.9813
G1 X44.283 Y15.977 E22.9955
G1 X44.278 Y15.987 E22.9966
G1 X44.070 Y16.408 E23.0435
G1 X44.065 Y16.419 E23.0447
G1 X43.998 Y16.544 E23.0589
G1 X43.992 Y16.555 E23.0601
G1 X39.260 Y24.752 E24.0045
G1 X39.254 Y24.761 E24.0056
G1 X39.180 Y24.880 E24.0196
G1 X39.174 Y24.890 E24.0207
G1 X38.918 Y25.273 E24.0667
G1 X38.912 Y25.283 E24.0679
G1 X38.830 Y25.397 E24.0818
G1 X38.823 Y25.406 E24.0830
G1 X38.154 Y26.283 E24.1930
G1 X38.139 Y26.301 E24.1954
G1 X37.948 Y26.520 E24.2244
G1 X37.931 Y26.538 E24.2268
G1 X37.253 Y27.216 E24.3226
G1 X37.235 Y27.233 E24.3250
G1 X37.016 Y27.425 E24.3540
G1 X36.997 Y27.440 E24.3564
G1 X35.934 Y28.251 E24.4899
G1 X35.915 Y28.265 E24.4922
G1 X35.680 Y28.421 E24.5204
G1 X35.660 Y28.434 E24.5228
G1 X34.853 Y28.898 E24.6156
G1 X34.832 Y28.909 E24.6180
G1 X34.579 Y29.034 E24.6462
G1 X34.558 Y29.043 E24.6485
G1 X33.335 Y29.550 E24.7806
G1 X33.313 Y29.558 E24.7829
G1 X33.045 Y29.650 E24.8112
G1 X33.022 Y29.656 E24.8135
G1 X32.121 Y29.899 E24.9066
G1 X32.099 Y29.904 E24.9090
G1 X31.821 Y29.960 E24.9372
G1 X31.798 Y29.964 E24.9395
G1 X30.473 Y30.141 E25.0729
G1 X30.449 Y30.144 E25.0753
G1 X30.219 Y30.159 E25.0983
G1 X30.219 Y40.842 E26.1642
G1 X30.214 Y40.903 E26.1704
G1 X30.085 Y41.645 E26.2455
G1 X30.069 Y41.705 E26.2517
G1 X29.226 Y44.052 E26.5005
G1 X29.201 Y44.108 E26.5067
G1 X28.828 Y44.763 E26.5818
G1 X28.793 Y44.814 E26.5880
G1 X24.481 Y50.047 E27.2646
G1 X24.424 Y50.102 E27.2725
G1 X23.663 Y50.695 E27.3688
G1 X23.596 Y50.736 E27.3767
G1 X20.697 Y52.104 E27.6965
G1 X20.622 Y52.129 E27.7044
G1 X19.680 Y52.340 E27.8007
G1 X19.602 Y52.349 E27.8086
G1 X-19.594 Y52.349 E31.7196
G1 X-19.673 Y52.340 E31.7275
G1 X-20.610 Y52.131 E31.8233
G1 X-20.685 Y52.106 E31.8312
G1 X-23.574 Y50.750 E32.1496
G1 X-23.641 Y50.709 E32.1574
G1 X-24.401 Y50.121 E32.2533
G1 X-24.458 Y50.066 E32.2612
G1 X-28.778 Y44.864 E32.9359
G1 X-28.813 Y44.812 E32.9421
G1 X-29.189 Y44.155 E33.0177
G1 X-29.216 Y44.099 E33.0239
G1 X-30.067 Y41.740 E33.2741
G1 X-30.083 Y41.680 E33.2803
G1 X-30.214 Y40.934 E33.3559
G1 X-30.219 Y40.872 E33.3621
G1 X-30.219 Y29.382 E34.5086
G1 X-30.214 Y29.319 E34.5148
G1 X-30.083 Y28.572 E34.5905
G1 X-30.066 Y28.512 E34.5968
G1 X-29.435 Y26.765 E34.7821
G1 X-40.822 Y7.042 E37.0546
G1 X-40.518 Y6.609 F4800
G92 E0
G1 X-42.561 Y6.242 E0.2071 F1800
G1 X-42.581 Y6.237 E0.2092
G1 X-43.251 Y5.992 E0.2804
G1 X-43.270 Y5.983 E0.2825
G1 X-46.127 Y4.335 E0.6116
G1 X-46.127 Y4.335 E0.6116
G1 X-46.128 Y4.335 E0.6117
G1 X-46.129 Y4.335 E0.6117
G1 X-46.130 Y4.334 E0.6119
G1 X-53.168 Y0.269 E1.4228
G1 X-53.185 Y0.257 E1.4249
G1 X-53.733 Y-0.201 E1.4962
G1 X-53.747 Y-0.216 E1.4983
G1 X-55.336 Y-2.098 E1.7440
G1 X-55.348 Y-2.115 E1.7461
G1 X-55.708 Y-2.733 E1.8174
G1 X-55.717 Y-2.752 E1.8195
G1 X-58.050 Y-9.051 E2.4898
G1 X-58.057 Y-9.077 E2.4924
G1 X-58.179 Y-9.977 E2.5831
G1 X-58.180 Y-10.003 E2.5857
G1 X-57.915 Y-13.132 E2.8990
G1 X-57.910 Y-13.158 E2.9017
G1 X-57.638 Y-14.025 E2.9923
G1 X-57.628 Y-14.049 E2.9949
G1 X-38.058 Y-47.944 E6.9002
G1 X-38.042 Y-47.965 E6.9028
G1 X-37.428 Y-48.633 E6.9934
G1 X-37.408 Y-48.651 E6.9960
G1 X-34.833 Y-50.444 E7.3092
G1 X-34.810 Y-50.457 E7.3118
G1 X-33.970 Y-50.801 E7.4024
G1 X-33.944 Y-50.808 E7.4050
G1 X-27.320 Y-51.941 E8.0756
G1 X-27.299 Y-51.942 E8.0777
G1 X-26.584 Y-51.940 E8.1490
G1 X-26.563 Y-51.938 E8.1511
G1 X-24.139 Y-51.505 E8.3968
G1 X-24.119 Y-51.500 E8.3989
G1 X-23.448 Y-51.255 E8.4702
G1 X-23.429 Y-51.246 E8.4722
G1 X-19.052 Y-48.724 E8.9763
G1 X-19.052 Y-48.724 E8.9763
G1 X-19.048 Y-48.721 E8.9767
G1 X-19.035 Y-48.714 E8.9782
G1 X-19.035 Y-48.714 E8.9782
G1 X-19.031 Y-48.712 E8.9787
G1 X-19.031 Y-48.711 E8.9787
G1 X-13.680 Y-45.597 E9.5965
G1 X-13.482 Y-45.795 E9.6244
G1 X-13.443 Y-45.822 E9.6291
G1 X-11.929 Y-46.449 E9.7926
G1 X-11.883 Y-46.458 E9.7973
G1 X-3.115 Y-46.458 E10.6722
G1 X-3.069 Y-46.449 E10.6769
G1 X-1.555 Y-45.822 E10.8404
G1 X-1.516 Y-45.795 E10.8451
G1 X0.002 Y-44.278 E11.0592
G1 X1.519 Y-45.795 E11.2733
G1 X1.558 Y-45.822 E11.2781
G1 X3.072 Y-46.449 E11.4416
G1 X3.119 Y-46.458 E11.4463
G1 X11.880 Y-46.458 E12.3205
G1 X11.926 Y-46.449 E12.3252
G1 X13.440 Y-45.822 E12.4887
G1 X13.479 Y-45.795 E12.4934
G1 X13.668 Y-45.607 E12.5200
G1 X23.443 Y-51.251 E13.6463
G1 X23.462 Y-51.260 E13.6484
G1 X24.136 Y-51.506 E13.7200
G1 X24.156 Y-51.511 E13.7221
G1 X26.591 Y-51.944 E13.9688
G1 X26.612 Y-51.946 E13.9709
G1 X27.329 Y-51.948 E14.0425
G1 X27.350 Y-51.946 E14.0446
G1 X33.959 Y-50.802 E14.7138
G1 X33.984 Y-50.795 E14.7164
G1 X34.822 Y-50.450 E14.8068
G1 X34.845 Y-50.438 E14.8094
G1 X37.412 Y-48.646 E15.1218
G1 X37.432 Y-48.629 E15.1244
G1 X38.044 Y-47.962 E15.2148
G1 X38.060 Y-47.940 E15.2174
G1 X57.626 Y-14.052 E19.1219
G1 X57.636 Y-14.028 E19.1246
G1 X57.908 Y-13.163 E19.2150
G1 X57.913 Y-13.137 E19.2176
G1 X58.180 Y-10.015 E19.5303
G1 X58.180 Y-9.989 E19.5329
G1 X58.059 Y-9.091 E19.6233
G1 X58.053 Y-9.065 E19.6260
G1 X55.733 Y-2.768 E20.2955
G1 X55.724 Y-2.749 E20.2976
G1 X55.364 Y-2.129 E20.3692
G1 X55.352 Y-2.112 E20.3712
G1 X53.760 Y-0.223 E20.6178
G1 X53.745 Y-0.208 E20.6199
G1 X53.196 Y0.252 E20.6914
G1 X53.178 Y0.264 E20.6935
G1 X43.506 Y5.846 E21.8078
G1 X43.600 Y6.018 E21.8273
G1 X43.603 Y6.023 E21.8279
G1 X43.940 Y6.712 E21.9045
G1 X43.942 Y6.715 E21.9048
G1 X43.994 Y6.831 E21.9175
G1 X43.995 Y6.835 E21.9179
G1 X44.162 Y7.237 E21.9614
G1 X44.164 Y7.241 E21.9617
G1 X44.209 Y7.359 E21.9744
G1 X44.210 Y7.363 E21.9748
G1 X44.461 Y8.094 E22.0519
G1 X44.463 Y8.100 E22.0525
G1 X44.521 Y8.301 E22.0734
G1 X44.523 Y8.307 E22.0740
G1 X44.686 Y9.005 E22.1456
G1 X44.687 Y9.011 E22.1462
G1 X44.724 Y9.217 E22.1670
G1 X44.725 Y9.223 E22.1676
G1 X44.879 Y10.416 E22.2877
G1 X44.880 Y10.423 E22.2884
G1 X44.897 Y10.687 E22.3148
G1 X44.897 Y10.695 E22.3156
G1 X44.897 Y11.601 E22.4060
G1 X44.897 Y11.609 E22.4068
G1 X44.880 Y11.872 E22.4331
G1 X44.879 Y11.880 E22.4339
G1 X44.711 Y13.181 E22.5648
G1 X44.710 Y13.189 E22.5656
G1 X44.657 Y13.457 E22.5928
G1 X44.656 Y13.464 E22.5936
G1 X44.415 Y14.368 E22.6869
G1 X44.412 Y14.376 E22.6877
G1 X44.325 Y14.634 E22.7149
G1 X44.322 Y14.641 E22.7157
G1 X43.905 Y15.649 E22.8245
G1 X43.903 Y15.652 E22.8249
G1 X43.847 Y15.775 E22.8383
G1 X43.846 Y15.778 E22.8387
G1 X43.642 Y16.192 E22.8848
G1 X43.640 Y16.196 E22.8852
G1 X43.576 Y16.315 E22.8986
G1 X43.574 Y16.318 E22.8990
G1 X38.846 Y24.508 E23.8427
G1 X38.844 Y24.512 E23.8430
G1 X38.774 Y24.624 E23.8562
G1 X38.772 Y24.627 E23.8566
G1 X38.521 Y25.004 E23.9018
G1 X38.519 Y25.007 E23.9022
G1 X38.442 Y25.115 E23.9154
G1 X38.440 Y25.118 E23.9158
G1 X37.778 Y25.985 E24.0246
G1 X37.773 Y25.991 E24.0254
G1 X37.592 Y26.198 E24.0529
G1 X37.586 Y26.204 E24.0536
G1 X36.919 Y26.871 E24.1478
G1 X36.913 Y26.877 E24.1486
G1 X36.706 Y27.058 E24.1761
G1 X36.700 Y27.063 E24.1769
G1 X35.649 Y27.865 E24.3088
G1 X35.643 Y27.870 E24.3095
G1 X35.420 Y28.017 E24.3362
G1 X35.414 Y28.021 E24.3369
G1 X34.620 Y28.478 E24.4283
G1 X34.613 Y28.482 E24.4291
G1 X34.374 Y28.600 E24.4557
