; G-Code generated by Simplify3D(R) Version 3.0.1
; Aug. 1, 2015 at 5:23:11 NACHM.
; Settings Summary
;   processName,ABS Heated
;   applyToModels,HotEndHolderScrewMount,HotEndHolderClip
;   profileName,OpenBeam KosselPro(2)
;   profileVersion,2015-07-07 14:31:48
;   baseProfile,Default
;   printMaterial,ABS
;   printQuality,Medium
;   printExtruders,
;   extruderName,Extruder 1
;   extruderToolheadNumber,0
;   extruderDiameter,0.4
;   extruderAutoWidth,1
;   extruderWidth,0.48
;   extrusionMultiplier,1
;   extruderUseRetract,1
;   extruderRetractionDistance,6
;   extruderExtraRestartDistance,0
;   extruderRetractionZLift,0.3
;   extruderRetractionSpeed,3600
;   extruderUseCoasting,0
;   extruderCoastingDistance,0.2
;   extruderUseWipe,0
;   extruderWipeDistance,5
;   primaryExtruder,0
;   layerHeight,0.2
;   topSolidLayers,3
;   bottomSolidLayers,3
;   perimeterOutlines,2
;   printPerimetersInsideOut,1
;   startPointOption,2
;   startPointOriginX,0
;   startPointOriginY,0
;   startPointOriginZ,300
;   sequentialIslands,0
;   spiralVaseMode,0
;   firstLayerHeightPercentage,90
;   firstLayerWidthPercentage,100
;   firstLayerUnderspeed,0.5
;   useRaft,1
;   raftExtruder,0
;   raftLayers,3
;   raftOffset,3
;   raftSeparationDistance,0.14
;   raftInfill,85
;   disableRaftBaseLayers,0
;   useSkirt,1
;   skirtExtruder,0
;   skirtLayers,1
;   skirtOutlines,2
;   skirtOffset,4
;   usePrimePillar,0
;   primePillarExtruder,999
;   primePillarWidth,12
;   primePillarLocation,7
;   primePillarSpeedMultiplier,1
;   useOozeShield,0
;   oozeShieldExtruder,999
;   oozeShieldOffset,2
;   oozeShieldOutlines,1
;   oozeShieldSidewallShape,1
;   oozeShieldSidewallAngle,30
;   oozeShieldSpeedMultiplier,1
;   infillExtruder,0
;   internalInfillPattern,Rectilinear
;   externalInfillPattern,Rectilinear
;   infillPercentage,50
;   outlineOverlapPercentage,15
;   infillExtrusionWidthPercentage,100
;   minInfillLength,5
;   infillLayerInterval,1
;   infillAngles,45,-45
;   overlapInfillAngles,0
;   generateSupport,1
;   supportExtruder,0
;   supportInfillPercentage,30
;   supportExtraInflation,0
;   denseSupportLayers,0
;   denseSupportInfillPercentage,70
;   supportLayerInterval,1
;   supportHorizontalPartOffset,0.3
;   supportUpperSeparationLayers,1
;   supportLowerSeparationLayers,1
;   supportType,0
;   supportGridSpacing,4
;   maxOverhangAngle,45
;   supportAngles,0
;   temperatureName,Extruder 1 Temperature,Heated Bed
;   temperatureNumber,0,0
;   temperatureSetpointCount,1,1
;   temperatureSetpointLayers,1,1
;   temperatureSetpointTemperatures,230,100
;   temperatureStabilizeAtStartup,1,1
;   temperatureHeatedBed,0,1
;   temperatureRelayBetweenLayers,0,0
;   temperatureRelayBetweenLoops,0,0
;   fanLayers,1
;   fanSpeeds,0
;   blipFanToFullPower,0
;   adjustSpeedForCooling,1
;   minSpeedLayerTime,15
;   minCoolingSpeedSlowdown,20
;   increaseFanForCooling,0
;   minFanLayerTime,45
;   maxCoolingFanSpeed,100
;   increaseFanForBridging,0
;   bridgingFanSpeed,100
;   use5D,1
;   relativeEdistances,0
;   allowEaxisZeroing,1
;   independentExtruderAxes,0
;   includeM10123,0
;   stickySupport,1
;   applyToolheadOffsets,0
;   gcodeXoffset,0
;   gcodeYoffset,0
;   gcodeZoffset,0
;   overrideMachineDefinition,1
;   machineTypeOverride,1
;   strokeXoverride,240
;   strokeYoverride,240
;   strokeZoverride,275
;   originOffsetXoverride,120
;   originOffsetYoverride,120
;   originOffsetZoverride,0
;   homeXdirOverride,0
;   homeYdirOverride,0
;   homeZdirOverride,1
;   flipXoverride,1
;   flipYoverride,-1
;   flipZoverride,1
;   toolheadOffsets,0,0|0,0|0,0|0,0|0,0|0,0
;   overrideFirmwareConfiguration,1
;   firmwareTypeOverride,RepRap (Marlin/Repetier/Sprinter)
;   GPXconfigOverride,r2
;   baudRateOverride,250000
;   overridePrinterModels,0
;   printerModelsOverride
;   startingGcode,G28 ; home all axes,G29 Z.2; Auto calibration
;   layerChangeGcode,
;   retractionGcode,
;   toolChangeGcode,
;   endingGcode,G28 ; Home all axes,M104 S0 ; turn off extruder,M140 S0 ; turn off bed,M84 ; disable motors
;   createX3G,0
;   celebration,0
;   celebrationSong,Random Song
;   createMB5G,0
;   postProcessing,
;   defaultSpeed,3600
;   outlineUnderspeed,0.5
;   solidInfillUnderspeed,0.8
;   supportUnderspeed,0.8
;   rapidXYspeed,4800
;   rapidZspeed,1000
;   minBridgingArea,50
;   bridgingExtraInflation,0
;   bridgingExtrusionMultiplier,1
;   bridgingSpeedMultiplier,1
;   filamentDiameter,1.75
;   filamentPricePerKg,46
;   filamentDensity,1.25
;   useMinPrintHeight,0
;   minPrintHeight,0
;   useMaxPrintHeight,0
;   maxPrintHeight,0
;   useDiaphragm,0
;   diaphragmLayerInterval,20
;   robustSlicing,1
;   mergeAllIntoSolid,0
;   onlyRetractWhenCrossingOutline,1
;   retractBetweenLayers,1
;   useRetractionMinTravel,0
;   retractionMinTravel,3
;   retractWhileWiping,0
;   onlyWipeOutlines,1
;   avoidCrossingOutline,0
;   maxMovementDetourFactor,3
;   toolChangeRetractionDistance,12
;   toolChangeExtraRestartDistance,-0.5
;   toolChangeRetractionSpeed,600
;   allowThinWallGapFill,1
;   thinWallAllowedOverlapPercentage,10
;   horizontalSizeCompensation,0
G90
M82
M106 S0
M140 S100
M190 S100
M104 S230 T0
M109 S230 T0
G28 ; home all axes
G29 Z.2; Auto calibration
G92 E0
G1 E-6.0000 F3600
G1 Z0.750 F1000
; layer 1, Z = 0.45
T0
; tool H0.500 W0.480
; skirt
G1 X24.646 Y-6.877 F4800
G1 Z0.450 F1000
G1 E0.0000 F1080
G92 E0
G1 X24.738 Y-6.606 E0.0285 F1800
G1 X24.745 Y-6.583 E0.0309
G1 X24.813 Y-6.327 E0.0574
G1 X26.075 Y-5.598 E0.2027
G1 X26.095 Y-5.586 E0.2051
G1 X26.332 Y-5.427 E0.2335
G1 X26.351 Y-5.414 E0.2359
G1 X27.096 Y-4.842 E0.3296
G1 X27.114 Y-4.827 E0.3319
G1 X27.328 Y-4.639 E0.3604
G1 X27.346 Y-4.623 E0.3627
G1 X29.123 Y-2.845 E0.6136
G1 X29.139 Y-2.828 E0.6159
G1 X29.327 Y-2.614 E0.6444
G1 X29.342 Y-2.595 E0.6467
G1 X29.914 Y-1.851 E0.7404
G1 X29.928 Y-1.832 E0.7427
G1 X30.086 Y-1.595 E0.7711
G1 X30.098 Y-1.575 E0.7735
G1 X31.359 Y0.605 E1.0248
G1 X31.370 Y0.626 E1.0271
G1 X31.496 Y0.881 E1.0555
G1 X31.506 Y0.903 E1.0579
G1 X31.866 Y1.769 E1.1515
G1 X31.874 Y1.791 E1.1538
G1 X31.966 Y2.060 E1.1822
G1 X31.973 Y2.083 E1.1846
G1 X32.630 Y4.520 E1.4364
G1 X32.635 Y4.543 E1.4388
G1 X32.691 Y4.824 E1.4674
G1 X32.695 Y4.848 E1.4698
G1 X32.819 Y5.786 E1.5642
G1 X32.822 Y5.809 E1.5665
G1 X32.840 Y6.096 E1.5952
G1 X32.841 Y6.119 E1.5975
G1 X32.841 Y8.639 E1.8490
G1 X32.840 Y8.662 E1.8513
G1 X32.822 Y8.946 E1.8797
G1 X32.820 Y8.970 E1.8820
G1 X32.698 Y9.899 E1.9755
G1 X32.694 Y9.922 E1.9779
G1 X32.639 Y10.201 E2.0062
G1 X32.633 Y10.224 E2.0086
G1 X31.983 Y12.660 E2.2602
G1 X31.976 Y12.683 E2.2626
G1 X31.884 Y12.954 E2.2912
G1 X31.876 Y12.977 E2.2935
G1 X31.515 Y13.849 E2.3878
G1 X31.505 Y13.871 E2.3901
G1 X31.379 Y14.128 E2.4187
G1 X31.368 Y14.149 E2.4211
G1 X30.105 Y16.336 E2.6730
G1 X30.093 Y16.356 E2.6754
G1 X29.934 Y16.593 E2.7039
G1 X29.920 Y16.612 E2.7062
G1 X29.348 Y17.359 E2.8001
G1 X29.333 Y17.377 E2.8025
G1 X29.144 Y17.591 E2.8309
G1 X29.128 Y17.609 E2.8333
G1 X27.344 Y19.393 E3.0850
G1 X27.327 Y19.409 E3.0874
G1 X27.112 Y19.597 E3.1159
G1 X27.094 Y19.612 E3.1183
G1 X26.346 Y20.186 E3.2123
G1 X26.327 Y20.200 E3.2147
G1 X26.089 Y20.358 E3.2432
G1 X26.069 Y20.371 E3.2456
G1 X23.884 Y21.631 E3.4972
G1 X23.863 Y21.642 E3.4996
G1 X23.606 Y21.768 E3.5281
G1 X23.585 Y21.778 E3.5305
G1 X22.714 Y22.138 E3.6246
G1 X22.691 Y22.147 E3.6269
G1 X22.420 Y22.238 E3.6555
G1 X22.398 Y22.245 E3.6578
G1 X20.718 Y22.693 E3.8313
G1 X21.883 Y24.292 E4.0286
G1 X21.896 Y24.311 E4.0310
G1 X22.048 Y24.552 E4.0594
G1 X22.060 Y24.573 E4.0618
G1 X22.510 Y25.399 E4.1557
G1 X22.521 Y25.420 E4.1580
G1 X22.641 Y25.679 E4.1865
G1 X22.650 Y25.701 E4.1889
G1 X24.490 Y30.476 E4.6995
G1 X24.498 Y30.498 E4.7019
G1 X24.583 Y30.771 E4.7303
G1 X24.589 Y30.794 E4.7327
G1 X24.810 Y31.708 E4.8266
G1 X24.815 Y31.731 E4.8289
G1 X24.864 Y32.013 E4.8574
G1 X24.867 Y32.036 E4.8598
G1 X25.698 Y39.845 E5.6434
G1 X25.681 Y39.998 E5.6587
G1 X25.091 Y41.785 E5.8465
G1 X25.013 Y41.917 E5.8618
G1 X20.666 Y46.632 E6.5017
G1 X20.540 Y46.720 E6.5170
G1 X18.808 Y47.454 E6.7047
G1 X18.657 Y47.482 E6.7201
G1 X2.491 Y47.080 E8.3336
G1 X2.349 Y47.047 E8.3481
G1 X0.732 Y46.311 E8.5254
G1 X0.615 Y46.226 E8.5399
G1 X-0.525 Y44.980 E8.7084
G1 X-1.899 Y46.238 E8.8942
G1 X-2.017 Y46.310 E8.9080
G1 X-3.599 Y46.902 E9.0766
G1 X-3.736 Y46.925 E9.0904
G1 X-19.744 Y46.526 E10.6882
G1 X-19.893 Y46.490 E10.7035
G1 X-21.587 Y45.671 E10.8913
G1 X-21.709 Y45.577 E10.9066
G1 X-25.815 Y40.652 E11.5464
G1 X-25.887 Y40.516 E11.5618
G1 X-26.388 Y38.702 E11.7495
G1 X-26.397 Y38.549 E11.7649
G1 X-25.178 Y30.790 E12.5485
G1 X-25.174 Y30.767 E12.5508
G1 X-25.111 Y30.489 E12.5793
G1 X-25.105 Y30.466 E12.5817
G1 X-24.839 Y29.563 E12.6756
G1 X-24.832 Y29.541 E12.6779
G1 X-24.733 Y29.273 E12.7064
G1 X-24.724 Y29.251 E12.7088
G1 X-22.649 Y24.574 E13.2193
G1 X-22.639 Y24.553 E13.2216
G1 X-22.507 Y24.301 E13.2500
G1 X-22.495 Y24.281 E13.2524
G1 X-22.007 Y23.480 E13.3460
G1 X-21.994 Y23.460 E13.3483
G1 X-21.830 Y23.227 E13.3767
G1 X-21.816 Y23.209 E13.3791
G1 X-18.604 Y19.226 E13.8896
G1 X-18.589 Y19.208 E13.8919
G1 X-18.394 Y18.997 E13.9206
G1 X-18.378 Y18.980 E13.9229
G1 X-18.331 Y18.936 E13.9294
G1 X-18.732 Y18.535 E13.9859
G1 X-18.748 Y18.518 E13.9883
G1 X-18.936 Y18.303 E14.0168
G1 X-18.951 Y18.285 E14.0191
G1 X-22.091 Y14.195 E14.5337
G1 X-22.105 Y14.175 E14.5360
G1 X-22.263 Y13.938 E14.5645
G1 X-22.276 Y13.918 E14.5668
G1 X-22.746 Y13.104 E14.6606
G1 X-22.757 Y13.084 E14.6630
G1 X-22.883 Y12.828 E14.6914
G1 X-22.893 Y12.806 E14.6938
G1 X-24.868 Y8.045 E15.2081
G1 X-24.876 Y8.023 E15.2105
G1 X-24.968 Y7.752 E15.2390
G1 X-24.975 Y7.729 E15.2414
G1 X-25.219 Y6.820 E15.3353
G1 X-25.224 Y6.797 E15.3377
G1 X-25.249 Y6.672 E15.3504
G1 X-26.070 Y6.199 E15.4448
G1 X-26.090 Y6.187 E15.4472
G1 X-26.328 Y6.028 E15.4758
G1 X-26.347 Y6.014 E15.4781
G1 X-27.095 Y5.440 E15.5722
G1 X-27.114 Y5.425 E15.5746
G1 X-27.329 Y5.237 E15.6031
G1 X-27.346 Y5.220 E15.6055
G1 X-29.127 Y3.439 E15.8568
G1 X-29.143 Y3.422 E15.8592
G1 X-29.332 Y3.207 E15.8877
G1 X-29.347 Y3.189 E15.8901
G1 X-29.921 Y2.440 E15.9842
G1 X-29.935 Y2.421 E15.9866
G1 X-30.093 Y2.183 E16.0151
G1 X-30.106 Y2.163 E16.0175
G1 X-31.366 Y-0.023 E16.2692
G1 X-31.377 Y-0.044 E16.2716
G1 X-31.503 Y-0.298 E16.2999
G1 X-31.512 Y-0.320 E16.3022
G1 X-31.870 Y-1.184 E16.3956
G1 X-31.879 Y-1.206 E16.3979
G1 X-31.970 Y-1.474 E16.4262
G1 X-31.977 Y-1.497 E16.4286
G1 X-32.630 Y-3.928 E16.6798
G1 X-32.636 Y-3.951 E16.6821
G1 X-32.692 Y-4.232 E16.7107
G1 X-32.696 Y-4.255 E16.7130
G1 X-32.819 Y-5.191 E16.8072
G1 X-32.822 Y-5.215 E16.8096
G1 X-32.840 Y-5.500 E16.8382
G1 X-32.841 Y-5.524 E16.8405
G1 X-32.841 Y-8.049 E17.0925
G1 X-32.840 Y-8.073 E17.0949
G1 X-32.822 Y-8.358 E17.1234
G1 X-32.819 Y-8.382 E17.1258
G1 X-32.696 Y-9.317 E17.2199
G1 X-32.692 Y-9.340 E17.2222
G1 X-32.636 Y-9.620 E17.2508
G1 X-32.631 Y-9.643 E17.2531
G1 X-31.978 Y-12.076 E17.5044
G1 X-31.971 Y-12.098 E17.5067
G1 X-31.880 Y-12.367 E17.5350
G1 X-31.872 Y-12.389 E17.5374
G1 X-31.514 Y-13.253 E17.6307
G1 X-31.504 Y-13.274 E17.6330
G1 X-31.379 Y-13.528 E17.6613
G1 X-31.368 Y-13.549 E17.6636
G1 X-30.111 Y-15.732 E17.9150
G1 X-30.098 Y-15.752 E17.9174
G1 X-29.940 Y-15.990 E17.9459
G1 X-29.926 Y-16.009 E17.9483
G1 X-29.354 Y-16.757 E18.0422
G1 X-29.339 Y-16.775 E18.0446
G1 X-29.151 Y-16.990 E18.0731
G1 X-29.134 Y-17.008 E18.0754
G1 X-27.355 Y-18.790 E18.3268
G1 X-27.338 Y-18.806 E18.3291
G1 X-27.123 Y-18.995 E18.3577
G1 X-27.105 Y-19.010 E18.3600
G1 X-26.357 Y-19.584 E18.4541
G1 X-26.338 Y-19.598 E18.4564
G1 X-26.100 Y-19.757 E18.4849
G1 X-26.080 Y-19.770 E18.4873
G1 X-25.423 Y-20.150 E18.5631
G1 X-25.451 Y-20.283 E18.5767
G1 X-25.449 Y-20.394 E18.5878
G1 X-25.450 Y-20.403 E18.5886
G1 X-25.448 Y-20.512 E18.5995
G1 X-25.451 Y-20.522 E18.6006
G1 X-25.449 Y-20.634 E18.6117
G1 X-25.451 Y-20.643 E18.6127
G1 X-25.449 Y-20.755 E18.6238
G1 X-25.451 Y-20.764 E18.6248
G1 X-25.449 Y-20.875 E18.6358
G1 X-25.451 Y-20.886 E18.6370
G1 X-25.449 Y-20.999 E18.6482
G1 X-25.451 Y-21.008 E18.6491
G1 X-25.449 Y-21.118 E18.6602
G1 X-25.451 Y-21.127 E18.6610
G1 X-25.449 Y-21.237 E18.6720
G1 X-25.451 Y-21.247 E18.6730
G1 X-25.449 Y-21.358 E18.6841
G1 X-25.451 Y-21.369 E18.6852
G1 X-25.449 Y-21.479 E18.6963
G1 X-25.451 Y-21.489 E18.6973
G1 X-25.449 Y-21.600 E18.7083
G1 X-25.452 Y-21.610 E18.7094
G1 X-25.450 Y-21.722 E18.7205
G1 X-25.451 Y-21.731 E18.7214
G1 X-25.449 Y-21.841 E18.7324
G1 X-25.452 Y-21.851 E18.7335
G1 X-25.450 Y-21.962 E18.7445
G1 X-25.452 Y-21.972 E18.7455
G1 X-25.450 Y-22.083 E18.7566
G1 X-25.452 Y-22.093 E18.7576
G1 X-25.450 Y-22.203 E18.7686
G1 X-25.452 Y-22.214 E18.7697
G1 X-25.450 Y-22.325 E18.7808
G1 X-25.452 Y-22.334 E18.7817
G1 X-25.450 Y-22.445 E18.7928
G1 X-25.452 Y-22.455 E18.7938
G1 X-25.450 Y-22.565 E18.8048
G1 X-25.452 Y-22.574 E18.8057
G1 X-25.449 Y-22.735 E18.8217
G1 X-24.984 Y-24.643 E19.0177
G1 X-24.973 Y-24.664 E19.0200
G1 X-24.975 Y-37.374 E20.2882
G1 X-24.975 Y-37.389 E20.2897
G1 X-24.967 Y-37.570 E20.3078
G1 X-24.966 Y-37.585 E20.3093
G1 X-24.917 Y-38.180 E20.3689
G1 X-24.915 Y-38.195 E20.3704
G1 X-24.893 Y-38.375 E20.3885
G1 X-24.890 Y-38.390 E20.3900
G1 X-24.719 Y-39.409 E20.4932
G1 X-24.514 Y-41.145 E20.6676
G1 X-24.475 Y-41.270 E20.6806
G1 X-23.734 Y-42.688 E20.8403
G1 X-23.654 Y-42.792 E20.8533
G1 X-23.452 Y-42.970 E20.8802
G1 X-23.261 Y-43.285 E20.9169
G1 X-23.180 Y-43.378 E20.9292
G1 X-22.783 Y-43.701 E20.9803
G1 X-22.463 Y-44.123 E21.0331
G1 X-22.384 Y-44.200 E21.0442
G1 X-21.685 Y-44.693 E21.1295
G1 X-21.274 Y-45.101 E21.1873
G1 X-21.199 Y-45.158 E21.1967
G1 X-20.608 Y-45.497 E21.2647
G1 X-19.617 Y-46.378 E21.3970
G1 X-19.505 Y-46.446 E21.4101
G1 X-19.331 Y-46.512 E21.4286
G1 X-19.259 Y-46.571 E21.4379
G1 X-19.152 Y-46.631 E21.4502
G1 X-18.720 Y-46.785 E21.4959
G1 X-18.689 Y-46.806 E21.4997
G1 X-18.590 Y-46.856 E21.5107
G1 X-17.951 Y-47.058 E21.5776
G1 X-17.736 Y-47.135 E21.6004
G1 X-17.679 Y-47.145 E21.6062
G1 X-17.304 Y-47.264 E21.6454
G1 X-17.194 Y-47.281 E21.6565
G1 X-17.098 Y-47.281 E21.6660
G1 X-16.707 Y-47.385 E21.7065
G1 X-16.614 Y-47.397 E21.7158
G1 X-16.357 Y-47.397 E21.7415
G1 X-15.763 Y-47.512 E21.8018
G1 X-15.695 Y-47.518 E21.8087
G1 X15.499 Y-47.527 E24.9212
G1 X15.569 Y-47.521 E24.9282
G1 X16.140 Y-47.409 E24.9862
G1 X16.378 Y-47.409 E25.0100
G1 X16.471 Y-47.397 E25.0194
G1 X16.896 Y-47.284 E25.0632
G1 X16.950 Y-47.284 E25.0686
G1 X17.058 Y-47.267 E25.0796
G1 X17.371 Y-47.168 E25.1122
G1 X17.374 Y-47.168 E25.1126
G1 X17.495 Y-47.148 E25.1249
G1 X17.967 Y-46.980 E25.1748
G1 X18.338 Y-46.863 E25.2136
G1 X18.437 Y-46.815 E25.2246
G1 X18.439 Y-46.813 E25.2249
G1 X18.909 Y-46.646 E25.2747
G1 X19.017 Y-46.586 E25.2870
G1 X19.099 Y-46.519 E25.2975
G1 X19.270 Y-46.455 E25.3158
G1 X19.382 Y-46.387 E25.3288
G1 X20.365 Y-45.515 E25.4599
G1 X20.967 Y-45.170 E25.5292
G1 X21.042 Y-45.113 E25.5386
G1 X21.460 Y-44.698 E25.5973
G1 X22.119 Y-44.237 E25.6776
G1 X22.198 Y-44.160 E25.6886
G1 X22.515 Y-43.748 E25.7404
G1 X22.938 Y-43.405 E25.7948
G1 X23.019 Y-43.312 E25.8070
G1 X23.217 Y-42.988 E25.8449
G1 X23.417 Y-42.810 E25.8717
G1 X23.498 Y-42.707 E25.8848
G1 X24.240 Y-41.292 E26.0442
G1 X24.279 Y-41.167 E26.0572
G1 X24.450 Y-39.752 E26.1995
G1 X24.675 Y-38.301 E26.3460
G1 X24.677 Y-38.287 E26.3474
G1 X24.696 Y-38.120 E26.3642
G1 X24.697 Y-38.106 E26.3656
G1 X24.740 Y-37.553 E26.4209
G1 X24.741 Y-37.539 E26.4223
G1 X24.747 Y-37.371 E26.4391
G1 X24.747 Y-37.357 E26.4405
G1 X24.732 Y-14.683 E28.7029
G1 X24.718 Y-14.582 E28.7131
G1 X24.374 Y-13.396 E28.8364
G1 X24.332 Y-13.303 E28.8465
G1 X22.912 Y-11.057 E29.1116
G1 X24.637 Y-6.899 E29.5609
G1 X24.646 Y-6.877 E29.5632
G1 X24.194 Y-6.715 F4800
G92 E0
G1 X24.281 Y-6.459 E0.0270 F1800
G1 X24.283 Y-6.451 E0.0277
G1 X24.401 Y-6.011 E0.0733
G1 X25.828 Y-5.186 E0.2377
G1 X25.835 Y-5.182 E0.2384
G1 X26.058 Y-5.033 E0.2653
G1 X26.065 Y-5.028 E0.2661
G1 X26.797 Y-4.466 E0.3583
G1 X26.803 Y-4.461 E0.3590
G1 X27.006 Y-4.283 E0.3859
G1 X27.012 Y-4.278 E0.3867
G1 X28.778 Y-2.511 E0.6360
G1 X28.784 Y-2.505 E0.6368
G1 X28.961 Y-2.303 E0.6636
G1 X28.966 Y-2.297 E0.6644
