; G-Code generated by Simplify3D(R) Version 3.0.1
; Aug. 1, 2015 at 5:00:28 NACHM.
; Settings Summary
;   processName,ABS Heated
;   applyToModels,KosselProE3DEndEffector52
;   profileName,OpenBeam KosselPro(2)
;   profileVersion,2015-07-07 14:31:48
;   baseProfile,Default
;   printMaterial,ABS
;   printQuality,Medium
;   printExtruders,
;   extruderName,Extruder 1
;   extruderToolheadNumber,0
;   extruderDiameter,0.4
;   extruderAutoWidth,1
;   extruderWidth,0.48
;   extrusionMultiplier,1
;   extruderUseRetract,1
;   extruderRetractionDistance,6
;   extruderExtraRestartDistance,0
;   extruderRetractionZLift,0.3
;   extruderRetractionSpeed,3600
;   extruderUseCoasting,0
;   extruderCoastingDistance,0.2
;   extruderUseWipe,0
;   extruderWipeDistance,5
;   primaryExtruder,0
;   layerHeight,0.2
;   topSolidLayers,3
;   bottomSolidLayers,3
;   perimeterOutlines,2
;   printPerimetersInsideOut,1
;   startPointOption,2
;   startPointOriginX,0
;   startPointOriginY,0
;   startPointOriginZ,300
;   sequentialIslands,0
;   spiralVaseMode,0
;   firstLayerHeightPercentage,90
;   firstLayerWidthPercentage,100
;   firstLayerUnderspeed,0.5
;   useRaft,1
;   raftExtruder,0
;   raftLayers,3
;   raftOffset,3
;   raftSeparationDistance,0.14
;   raftInfill,85
;   disableRaftBaseLayers,0
;   useSkirt,1
;   skirtExtruder,0
;   skirtLayers,1
;   skirtOutlines,2
;   skirtOffset,4
;   usePrimePillar,0
;   primePillarExtruder,999
;   primePillarWidth,12
;   primePillarLocation,7
;   primePillarSpeedMultiplier,1
;   useOozeShield,0
;   oozeShieldExtruder,999
;   oozeShieldOffset,2
;   oozeShieldOutlines,1
;   oozeShieldSidewallShape,1
;   oozeShieldSidewallAngle,30
;   oozeShieldSpeedMultiplier,1
;   infillExtruder,0
;   internalInfillPattern,Rectilinear
;   externalInfillPattern,Rectilinear
;   infillPercentage,50
;   outlineOverlapPercentage,15
;   infillExtrusionWidthPercentage,100
;   minInfillLength,5
;   infillLayerInterval,1
;   infillAngles,45,-45
;   overlapInfillAngles,0
;   generateSupport,1
;   supportExtruder,0
;   supportInfillPercentage,30
;   supportExtraInflation,0
;   denseSupportLayers,0
;   denseSupportInfillPercentage,70
;   supportLayerInterval,1
;   supportHorizontalPartOffset,0.3
;   supportUpperSeparationLayers,1
;   supportLowerSeparationLayers,1
;   supportType,0
;   supportGridSpacing,4
;   maxOverhangAngle,45
;   supportAngles,0
;   temperatureName,Extruder 1 Temperature,Heated Bed
;   temperatureNumber,0,0
;   temperatureSetpointCount,1,1
;   temperatureSetpointLayers,1,1
;   temperatureSetpointTemperatures,230,100
;   temperatureStabilizeAtStartup,1,1
;   temperatureHeatedBed,0,1
;   temperatureRelayBetweenLayers,0,0
;   temperatureRelayBetweenLoops,0,0
;   fanLayers,1
;   fanSpeeds,0
;   blipFanToFullPower,0
;   adjustSpeedForCooling,1
;   minSpeedLayerTime,15
;   minCoolingSpeedSlowdown,20
;   increaseFanForCooling,0
;   minFanLayerTime,45
;   maxCoolingFanSpeed,100
;   increaseFanForBridging,0
;   bridgingFanSpeed,100
;   use5D,1
;   relativeEdistances,0
;   allowEaxisZeroing,1
;   independentExtruderAxes,0
;   includeM10123,0
;   stickySupport,1
;   applyToolheadOffsets,0
;   gcodeXoffset,0
;   gcodeYoffset,0
;   gcodeZoffset,0
;   overrideMachineDefinition,1
;   machineTypeOverride,1
;   strokeXoverride,240
;   strokeYoverride,240
;   strokeZoverride,275
;   originOffsetXoverride,120
;   originOffsetYoverride,120
;   originOffsetZoverride,0
;   homeXdirOverride,0
;   homeYdirOverride,0
;   homeZdirOverride,1
;   flipXoverride,1
;   flipYoverride,-1
;   flipZoverride,1
;   toolheadOffsets,0,0|0,0|0,0|0,0|0,0|0,0
;   overrideFirmwareConfiguration,1
;   firmwareTypeOverride,RepRap (Marlin/Repetier/Sprinter)
;   GPXconfigOverride,r2
;   baudRateOverride,250000
;   overridePrinterModels,0
;   printerModelsOverride
;   startingGcode,G28 ; home all axes,G29 Z.2; Auto calibration
;   layerChangeGcode,
;   retractionGcode,
;   toolChangeGcode,
;   endingGcode,G28 ; Home all axes,M104 S0 ; turn off extruder,M140 S0 ; turn off bed,M84 ; disable motors
;   createX3G,0
;   celebration,0
;   celebrationSong,Random Song
;   createMB5G,0
;   postProcessing,
;   defaultSpeed,3600
;   outlineUnderspeed,0.5
;   solidInfillUnderspeed,0.8
;   supportUnderspeed,0.8
;   rapidXYspeed,4800
;   rapidZspeed,1000
;   minBridgingArea,50
;   bridgingExtraInflation,0
;   bridgingExtrusionMultiplier,1
;   bridgingSpeedMultiplier,1
;   filamentDiameter,1.75
;   filamentPricePerKg,46
;   filamentDensity,1.25
;   useMinPrintHeight,0
;   minPrintHeight,0
;   useMaxPrintHeight,0
;   maxPrintHeight,0
;   useDiaphragm,0
;   diaphragmLayerInterval,20
;   robustSlicing,1
;   mergeAllIntoSolid,0
;   onlyRetractWhenCrossingOutline,1
;   retractBetweenLayers,1
;   useRetractionMinTravel,0
;   retractionMinTravel,3
;   retractWhileWiping,0
;   onlyWipeOutlines,1
;   avoidCrossingOutline,0
;   maxMovementDetourFactor,3
;   toolChangeRetractionDistance,12
;   toolChangeExtraRestartDistance,-0.5
;   toolChangeRetractionSpeed,600
;   allowThinWallGapFill,1
;   thinWallAllowedOverlapPercentage,10
;   horizontalSizeCompensation,0
G90
M82
M106 S0
M140 S100
M190 S100
M104 S230 T0
M109 S230 T0
G28 ; home all axes
G29 Z.2; Auto calibration
G92 E0
G1 E-6.0000 F3600
G1 Z0.750 F1000
; layer 1, Z = 0.45
T0
; tool H0.500 W0.480
; skirt
G1 X-40.822 Y7.042 F4800
G1 Z0.450 F1000
G1 E0.0000 F1080
G92 E0
G1 X-42.669 Y6.711 E0.1873 F1800
G1 X-42.729 Y6.694 E0.1935
G1 X-43.439 Y6.435 E0.2689
G1 X-43.495 Y6.409 E0.2751
G1 X-45.302 Y5.366 E0.4832
G1 X-45.304 Y5.365 E0.4834
G1 X-45.304 Y5.365 E0.4834
G1 X-53.426 Y0.675 E1.4192
G1 X-53.477 Y0.639 E1.4255
G1 X-54.057 Y0.153 E1.5009
G1 X-54.101 Y0.109 E1.5071
G1 X-55.716 Y-1.805 E1.7570
G1 X-55.752 Y-1.856 E1.7633
G1 X-56.133 Y-2.509 E1.8387
G1 X-56.160 Y-2.565 E1.8450
G1 X-58.510 Y-8.909 E2.5200
G1 X-58.529 Y-8.986 E2.5279
G1 X-58.658 Y-9.938 E2.6238
G1 X-58.660 Y-10.017 E2.6317
G1 X-58.391 Y-13.199 E2.9503
G1 X-58.376 Y-13.277 E2.9582
G1 X-58.088 Y-14.194 E3.0541
G1 X-58.056 Y-14.266 E3.0620
G1 X-38.460 Y-48.207 E6.9725
G1 X-38.414 Y-48.270 E6.9804
G1 X-37.764 Y-48.978 E7.0762
G1 X-37.704 Y-49.030 E7.0841
G1 X-35.085 Y-50.853 E7.4026
G1 X-35.016 Y-50.891 E7.4104
G1 X-34.127 Y-51.255 E7.5063
G1 X-34.051 Y-51.277 E7.5142
G1 X-27.377 Y-52.417 E8.1898
G1 X-27.315 Y-52.423 E8.1960
G1 X-26.558 Y-52.420 E8.2715
G1 X-26.496 Y-52.414 E8.2777
G1 X-24.030 Y-51.973 E8.5276
G1 X-23.970 Y-51.957 E8.5338
G1 X-23.260 Y-51.698 E8.6093
G1 X-23.203 Y-51.671 E8.6155
G1 X-17.537 Y-48.404 E9.2681
G1 X-17.537 Y-48.404 E9.2681
G1 X-17.532 Y-48.401 E9.2687
G1 X-17.531 Y-48.400 E9.2688
G1 X-17.514 Y-48.390 E9.2708
G1 X-17.514 Y-48.390 E9.2708
G1 X-17.509 Y-48.387 E9.2714
G1 X-17.508 Y-48.387 E9.2715
G1 X-13.752 Y-46.193 E9.7056
G1 X-13.671 Y-46.247 E9.7153
G1 X-12.070 Y-46.910 E9.8882
G1 X-11.930 Y-46.938 E9.9024
G1 X-3.068 Y-46.938 E10.7867
G1 X-2.929 Y-46.910 E10.8008
G1 X-1.328 Y-46.247 E10.9738
G1 X-1.210 Y-46.168 E10.9879
G1 X0.002 Y-44.957 E11.1588
G1 X1.213 Y-46.168 E11.3297
G1 X1.331 Y-46.247 E11.3439
G1 X2.932 Y-46.910 E11.5168
G1 X3.071 Y-46.938 E11.5310
G1 X11.927 Y-46.938 E12.4147
G1 X12.066 Y-46.910 E12.4288
G1 X13.668 Y-46.247 E12.6017
G1 X13.737 Y-46.201 E12.6100
G1 X23.221 Y-51.677 E13.7028
G1 X23.278 Y-51.703 E13.7091
G1 X23.991 Y-51.964 E13.7848
G1 X24.052 Y-51.980 E13.7911
G1 X26.527 Y-52.420 E14.0420
G1 X26.590 Y-52.426 E14.0482
G1 X27.349 Y-52.428 E14.1240
G1 X27.411 Y-52.423 E14.1302
G1 X34.067 Y-51.271 E14.8042
G1 X34.142 Y-51.249 E14.8120
G1 X35.028 Y-50.884 E14.9076
G1 X35.098 Y-50.846 E14.9155
G1 X37.708 Y-49.025 E15.2332
G1 X37.768 Y-48.973 E15.2410
G1 X38.416 Y-48.267 E15.3366
G1 X38.462 Y-48.203 E15.3445
G1 X58.055 Y-14.269 E19.2543
G1 X58.087 Y-14.197 E19.2622
G1 X58.374 Y-13.281 E19.3579
G1 X58.389 Y-13.204 E19.3658
G1 X58.661 Y-10.029 E19.6837
G1 X58.659 Y-9.950 E19.6916
G1 X58.531 Y-9.000 E19.7873
G1 X58.512 Y-8.923 E19.7952
G1 X56.176 Y-2.584 E20.4692
G1 X56.150 Y-2.528 E20.4755
G1 X55.769 Y-1.872 E20.5511
G1 X55.733 Y-1.821 E20.5574
G1 X54.115 Y0.099 E20.8079
G1 X54.071 Y0.143 E20.8141
G1 X53.490 Y0.630 E20.8898
G1 X53.439 Y0.666 E20.8960
G1 X44.145 Y6.034 E21.9670
G1 X44.203 Y6.136 E21.9787
G1 X44.214 Y6.157 E21.9810
G1 X44.338 Y6.409 E22.0090
G1 X44.347 Y6.430 E22.0113
G1 X44.701 Y7.285 E22.1037
G1 X44.709 Y7.307 E22.1060
G1 X44.800 Y7.572 E22.1340
G1 X44.807 Y7.595 E22.1363
G1 X45.153 Y8.877 E22.2688
G1 X45.158 Y8.900 E22.2712
G1 X45.215 Y9.182 E22.2999
G1 X45.218 Y9.205 E22.3022
G1 X45.343 Y10.144 E22.3968
G1 X45.345 Y10.168 E22.3991
G1 X45.364 Y10.455 E22.4278
G1 X45.365 Y10.478 E22.4302
G1 X45.365 Y11.692 E22.5512
G1 X45.365 Y11.709 E22.5530
G1 X45.354 Y11.920 E22.5740
G1 X45.353 Y11.937 E22.5758
G1 X45.286 Y12.630 E22.6452
G1 X45.284 Y12.647 E22.6469
G1 X45.253 Y12.856 E22.6680
G1 X45.250 Y12.873 E22.6697
G1 X45.077 Y13.759 E22.7598
G1 X45.073 Y13.777 E22.7616
G1 X45.020 Y13.987 E22.7833
G1 X45.016 Y14.005 E22.7851
G1 X44.809 Y14.689 E22.8564
G1 X44.803 Y14.706 E22.8582
G1 X44.730 Y14.911 E22.8799
G1 X44.724 Y14.928 E22.8817
G1 X44.347 Y15.837 E22.9799
G1 X44.342 Y15.848 E22.9811
G1 X44.283 Y15.978 E22.9953
G1 X44.278 Y15.989 E22.9965
G1 X44.071 Y16.410 E23.0434
G1 X44.065 Y16.421 E23.0446
G1 X43.998 Y16.546 E23.0588
G1 X43.992 Y16.557 E23.0600
G1 X39.255 Y24.761 E24.0053
G1 X39.249 Y24.771 E24.0065
G1 X39.172 Y24.895 E24.0210
G1 X39.166 Y24.905 E24.0222
G1 X38.900 Y25.302 E24.0699
G1 X38.893 Y25.312 E24.0710
G1 X38.808 Y25.429 E24.0855
G1 X38.801 Y25.439 E24.0867
G1 X38.126 Y26.315 E24.1971
G1 X38.111 Y26.333 E24.1994
G1 X37.921 Y26.548 E24.2280
G1 X37.905 Y26.566 E24.2304
G1 X37.235 Y27.232 E24.3247
G1 X37.218 Y27.248 E24.3271
G1 X37.001 Y27.436 E24.3557
G1 X36.983 Y27.451 E24.3580
G1 X36.017 Y28.187 E24.4792
G1 X36.003 Y28.198 E24.4809
G1 X35.826 Y28.319 E24.5023
G1 X35.812 Y28.329 E24.5041
G1 X35.210 Y28.700 E24.5746
G1 X35.195 Y28.708 E24.5763
G1 X35.007 Y28.812 E24.5977
G1 X34.992 Y28.820 E24.5995
G1 X34.300 Y29.158 E24.6763
G1 X34.290 Y29.163 E24.6774
G1 X34.167 Y29.218 E24.6908
G1 X34.157 Y29.223 E24.6919
G1 X33.749 Y29.392 E24.7361
G1 X33.738 Y29.396 E24.7372
G1 X33.613 Y29.443 E24.7506
G1 X33.603 Y29.447 E24.7517
G1 X32.872 Y29.699 E24.8287
G1 X32.855 Y29.704 E24.8305
G1 X32.648 Y29.764 E24.8520
G1 X32.631 Y29.768 E24.8538
G1 X31.941 Y29.932 E24.9246
G1 X31.923 Y29.936 E24.9264
G1 X31.711 Y29.975 E24.9478
G1 X31.694 Y29.978 E24.9496
G1 X30.483 Y30.141 E25.0716
G1 X30.459 Y30.143 E25.0739
G1 X30.221 Y30.159 E25.0977
G1 X30.221 Y40.842 E26.1637
G1 X30.216 Y40.904 E26.1699
G1 X30.086 Y41.646 E26.2451
G1 X30.071 Y41.706 E26.2513
G1 X29.227 Y44.054 E26.5002
G1 X29.201 Y44.111 E26.5064
G1 X28.829 Y44.766 E26.5816
G1 X28.794 Y44.817 E26.5878
G1 X24.479 Y50.049 E27.2644
G1 X24.422 Y50.104 E27.2724
G1 X23.661 Y50.696 E27.3686
G1 X23.593 Y50.738 E27.3765
G1 X20.696 Y52.104 E27.6961
G1 X20.621 Y52.130 E27.7041
G1 X19.680 Y52.340 E27.8003
G1 X19.601 Y52.349 E27.8082
G1 X-19.596 Y52.349 E31.7193
G1 X-19.675 Y52.340 E31.7272
G1 X-20.612 Y52.131 E31.8230
G1 X-20.687 Y52.106 E31.8309
G1 X-23.576 Y50.750 E32.1493
G1 X-23.643 Y50.709 E32.1572
G1 X-24.403 Y50.121 E32.2530
G1 X-24.460 Y50.066 E32.2609
G1 X-28.780 Y44.864 E32.9356
G1 X-28.815 Y44.812 E32.9419
G1 X-29.191 Y44.155 E33.0174
G1 X-29.218 Y44.099 E33.0236
G1 X-30.069 Y41.740 E33.2738
G1 X-30.085 Y41.680 E33.2800
G1 X-30.216 Y40.934 E33.3556
G1 X-30.221 Y40.872 E33.3618
G1 X-30.221 Y29.382 E34.5083
G1 X-30.216 Y29.319 E34.5146
G1 X-30.085 Y28.572 E34.5903
G1 X-30.068 Y28.512 E34.5965
G1 X-29.436 Y26.765 E34.7819
G1 X-40.822 Y7.042 E37.0542
G1 X-40.518 Y6.609 F4800
G92 E0
G1 X-42.564 Y6.242 E0.2074 F1800
G1 X-42.584 Y6.236 E0.2095
G1 X-43.255 Y5.991 E0.2807
G1 X-43.273 Y5.982 E0.2828
G1 X-45.061 Y4.951 E0.4888
G1 X-45.062 Y4.951 E0.4889
G1 X-53.167 Y0.269 E1.4228
G1 X-53.185 Y0.257 E1.4249
G1 X-53.733 Y-0.201 E1.4962
G1 X-53.747 Y-0.216 E1.4983
G1 X-55.336 Y-2.098 E1.7440
G1 X-55.348 Y-2.115 E1.7461
G1 X-55.708 Y-2.733 E1.8174
G1 X-55.717 Y-2.752 E1.8195
G1 X-58.050 Y-9.051 E2.4898
G1 X-58.057 Y-9.077 E2.4924
G1 X-58.179 Y-9.977 E2.5831
G1 X-58.180 Y-10.003 E2.5857
G1 X-57.915 Y-13.132 E2.8991
G1 X-57.910 Y-13.158 E2.9017
G1 X-57.638 Y-14.025 E2.9923
G1 X-57.628 Y-14.049 E2.9950
G1 X-38.058 Y-47.944 E6.9002
G1 X-38.042 Y-47.965 E6.9029
G1 X-37.428 Y-48.633 E6.9934
G1 X-37.408 Y-48.651 E6.9961
G1 X-34.832 Y-50.444 E7.3092
G1 X-34.809 Y-50.457 E7.3119
G1 X-33.969 Y-50.801 E7.4025
G1 X-33.944 Y-50.808 E7.4051
G1 X-27.316 Y-51.941 E8.0760
G1 X-27.296 Y-51.942 E8.0780
G1 X-26.581 Y-51.940 E8.1494
G1 X-26.560 Y-51.938 E8.1514
G1 X-24.135 Y-51.504 E8.3972
G1 X-24.115 Y-51.499 E8.3993
G1 X-23.444 Y-51.254 E8.4706
G1 X-23.425 Y-51.245 E8.4727
G1 X-17.777 Y-47.988 E9.1232
G1 X-17.777 Y-47.988 E9.1232
G1 X-17.772 Y-47.985 E9.1238
G1 X-17.772 Y-47.985 E9.1238
G1 X-17.755 Y-47.975 E9.1258
G1 X-17.755 Y-47.975 E9.1258
G1 X-17.750 Y-47.972 E9.1263
G1 X-17.750 Y-47.972 E9.1264
G1 X-13.682 Y-45.596 E9.5964
G1 X-13.483 Y-45.795 E9.6245
G1 X-13.443 Y-45.822 E9.6293
G1 X-11.930 Y-46.449 E9.7928
G1 X-11.883 Y-46.458 E9.7975
G1 X-3.115 Y-46.458 E10.6723
G1 X-3.069 Y-46.449 E10.6771
G1 X-1.555 Y-45.822 E10.8406
G1 X-1.516 Y-45.795 E10.8453
G1 X0.002 Y-44.278 E11.0594
G1 X1.519 Y-45.795 E11.2735
G1 X1.558 Y-45.822 E11.2782
G1 X3.072 Y-46.449 E11.4417
G1 X3.118 Y-46.458 E11.4464
G1 X11.880 Y-46.458 E12.3207
G1 X11.926 Y-46.449 E12.3254
G1 X13.440 Y-45.822 E12.4889
G1 X13.480 Y-45.795 E12.4936
G1 X13.668 Y-45.607 E12.5202
G1 X23.443 Y-51.251 E13.6464
G1 X23.462 Y-51.260 E13.6485
G1 X24.136 Y-51.506 E13.7201
G1 X24.156 Y-51.511 E13.7222
G1 X26.591 Y-51.944 E13.9689
G1 X26.612 Y-51.946 E13.9710
G1 X27.329 Y-51.948 E14.0426
G1 X27.350 Y-51.946 E14.0447
G1 X33.959 Y-50.802 E14.7139
G1 X33.984 Y-50.795 E14.7166
G1 X34.822 Y-50.450 E14.8069
G1 X34.845 Y-50.438 E14.8095
G1 X37.412 Y-48.646 E15.1219
G1 X37.432 Y-48.629 E15.1246
G1 X38.044 Y-47.962 E15.2149
G1 X38.060 Y-47.940 E15.2175
G1 X57.626 Y-14.052 E19.1221
G1 X57.637 Y-14.028 E19.1247
G1 X57.908 Y-13.163 E19.2152
G1 X57.913 Y-13.137 E19.2178
G1 X58.180 Y-10.014 E19.5305
G1 X58.180 Y-9.988 E19.5331
G1 X58.059 Y-9.090 E19.6236
G1 X58.052 Y-9.064 E19.6262
G1 X55.733 Y-2.770 E20.2956
G1 X55.724 Y-2.751 E20.2976
G1 X55.364 Y-2.131 E20.3691
G1 X55.352 Y-2.114 E20.3712
G1 X53.762 Y-0.226 E20.6176
G1 X53.747 Y-0.211 E20.6196
G1 X53.197 Y0.249 E20.6911
G1 X53.180 Y0.261 E20.6932
G1 X43.490 Y5.858 E21.8098
G1 X43.783 Y6.368 E21.8686
G1 X43.787 Y6.375 E21.8693
G1 X43.904 Y6.613 E21.8958
G1 X43.907 Y6.620 E21.8966
G1 X44.255 Y7.461 E21.9874
G1 X44.258 Y7.469 E21.9882
G1 X44.343 Y7.720 E22.0146
G1 X44.345 Y7.727 E22.0154
G1 X44.687 Y8.994 E22.1464
G1 X44.689 Y9.002 E22.1471
G1 X44.742 Y9.268 E22.1742
G1 X44.744 Y9.276 E22.1750
G1 X44.866 Y10.199 E22.2680
G1 X44.867 Y10.207 E22.2688
G1 X44.885 Y10.478 E22.2959
G1 X44.885 Y10.486 E22.2967
G1 X44.885 Y11.686 E22.4164
G1 X44.885 Y11.692 E22.4169
G1 X44.875 Y11.891 E22.4368
G1 X44.875 Y11.897 E22.4374
G1 X44.809 Y12.577 E22.5057
G1 X44.808 Y12.583 E22.5062
G1 X44.779 Y12.781 E22.5262
G1 X44.778 Y12.786 E22.5267
G1 X44.607 Y13.661 E22.6157
G1 X44.605 Y13.667 E22.6163
G1 X44.556 Y13.866 E22.6367
G1 X44.554 Y13.872 E22.6373
G1 X44.351 Y14.545 E22.7075
G1 X44.349 Y14.551 E22.7081
G1 X44.280 Y14.744 E22.7286
G1 X44.278 Y14.749 E22.7292
G1 X43.905 Y15.650 E22.8264
G1 X43.904 Y15.653 E22.8268
G1 X43.848 Y15.776 E22.8403
G1 X43.846 Y15.780 E22.8406
G1 X43.642 Y16.194 E22.8868
G1 X43.640 Y16.198 E22.8872
G1 X43.576 Y16.317 E22.9006
G1 X43.575 Y16.320 E22.9010
G1 X38.841 Y24.518 E23.8455
G1 X38.839 Y24.521 E23.8459
G1 X38.767 Y24.638 E23.8596
G1 X38.765 Y24.641 E23.8600
G1 X38.503 Y25.031 E23.9069
G1 X38.501 Y25.035 E23.9073
G1 X38.421 Y25.146 E23.9210
G1 X38.418 Y25.149 E23.9214
G1 X37.750 Y26.016 E24.0305
G1 X37.745 Y26.022 E24.0313
G1 X37.566 Y26.225 E24.0584
G1 X37.561 Y26.231 E24.0591
G1 X36.902 Y26.886 E24.1519
G1 X36.896 Y26.891 E24.1526
G1 X36.692 Y27.069 E24.1797
G1 X36.686 Y27.074 E24.1805
G1 X35.731 Y27.802 E24.3002
G1 X35.726 Y27.805 E24.3008
G1 X35.559 Y27.920 E24.3210
