; G-Code generated by Simplify3D(R) Version 3.0.2
; Sep. 29, 2015 at 8:22:25 NACHM.
; Settings Summary
;   processName,ABS Heated
;   applyToModels,BlowerFanDuctMagnetic
;   profileName,OpenBeam KosselPro
;   profileVersion,2015-09-24 18:48:56
;   baseProfile,Default
;   printMaterial,ABS
;   printQuality,Medium
;   printExtruders,
;   extruderName,E3Dv6
;   extruderToolheadNumber,0
;   extruderDiameter,0.4
;   extruderAutoWidth,1
;   extruderWidth,0.48
;   extrusionMultiplier,1
;   extruderUseRetract,1
;   extruderRetractionDistance,5
;   extruderExtraRestartDistance,0
;   extruderRetractionZLift,0.2
;   extruderRetractionSpeed,9600
;   extruderUseCoasting,0
;   extruderCoastingDistance,0.2
;   extruderUseWipe,0
;   extruderWipeDistance,5
;   primaryExtruder,0
;   layerHeight,0.2
;   topSolidLayers,3
;   bottomSolidLayers,3
;   perimeterOutlines,2
;   printPerimetersInsideOut,1
;   startPointOption,2
;   startPointOriginX,0
;   startPointOriginY,0
;   startPointOriginZ,300
;   sequentialIslands,0
;   spiralVaseMode,0
;   firstLayerHeightPercentage,75
;   firstLayerWidthPercentage,100
;   firstLayerUnderspeed,0.75
;   useRaft,1
;   raftExtruder,0
;   raftLayers,3
;   raftOffset,3
;   raftSeparationDistance,0.14
;   raftInfill,85
;   disableRaftBaseLayers,0
;   useSkirt,1
;   skirtExtruder,0
;   skirtLayers,1
;   skirtOutlines,1
;   skirtOffset,4
;   usePrimePillar,0
;   primePillarExtruder,999
;   primePillarWidth,12
;   primePillarLocation,7
;   primePillarSpeedMultiplier,1
;   useOozeShield,0
;   oozeShieldExtruder,999
;   oozeShieldOffset,2
;   oozeShieldOutlines,1
;   oozeShieldSidewallShape,1
;   oozeShieldSidewallAngle,30
;   oozeShieldSpeedMultiplier,1
;   infillExtruder,0
;   internalInfillPattern,Rectilinear
;   externalInfillPattern,Rectilinear
;   infillPercentage,50
;   outlineOverlapPercentage,15
;   infillExtrusionWidthPercentage,100
;   minInfillLength,5
;   infillLayerInterval,1
;   infillAngles,45,-45
;   overlapInfillAngles,0
;   generateSupport,1
;   supportExtruder,0
;   supportInfillPercentage,30
;   supportExtraInflation,0
;   denseSupportLayers,0
;   denseSupportInfillPercentage,70
;   supportLayerInterval,1
;   supportHorizontalPartOffset,0.3
;   supportUpperSeparationLayers,1
;   supportLowerSeparationLayers,1
;   supportType,0
;   supportGridSpacing,4
;   maxOverhangAngle,45
;   supportAngles,0
;   temperatureName,E3Dv6 Temperature,Heated Bed Temperature
;   temperatureNumber,0,0
;   temperatureSetpointCount,1,2
;   temperatureSetpointLayers,1,1,2
;   temperatureSetpointTemperatures,240,120,105
;   temperatureStabilizeAtStartup,1,1
;   temperatureHeatedBed,0,1
;   temperatureRelayBetweenLayers,0,0
;   temperatureRelayBetweenLoops,0,0
;   fanLayers,1
;   fanSpeeds,0
;   blipFanToFullPower,0
;   adjustSpeedForCooling,1
;   minSpeedLayerTime,15
;   minCoolingSpeedSlowdown,20
;   increaseFanForCooling,0
;   minFanLayerTime,45
;   maxCoolingFanSpeed,100
;   increaseFanForBridging,0
;   bridgingFanSpeed,100
;   use5D,1
;   relativeEdistances,0
;   allowEaxisZeroing,1
;   independentExtruderAxes,0
;   includeM10123,0
;   stickySupport,1
;   applyToolheadOffsets,0
;   gcodeXoffset,0
;   gcodeYoffset,0
;   gcodeZoffset,0
;   overrideMachineDefinition,1
;   machineTypeOverride,1
;   strokeXoverride,240
;   strokeYoverride,240
;   strokeZoverride,255
;   originOffsetXoverride,120
;   originOffsetYoverride,120
;   originOffsetZoverride,0
;   homeXdirOverride,0
;   homeYdirOverride,0
;   homeZdirOverride,1
;   flipXoverride,-1
;   flipYoverride,1
;   flipZoverride,1
;   toolheadOffsets,0,0|0,0|0,0|0,0|0,0|0,0
;   overrideFirmwareConfiguration,1
;   firmwareTypeOverride,RepRap (Marlin/Repetier/Sprinter)
;   GPXconfigOverride,r2
;   baudRateOverride,250000
;   overridePrinterModels,0
;   printerModelsOverride
;   startingGcode,G28               ; home all axes,;M211 S90      ; S<factor in percent> set extrude factor override percentage
;   layerChangeGcode,
;   retractionGcode,
;   toolChangeGcode,
;   endingGcode,G28;,M104 S0 ; turn off extruder,M140 S0 ; turn off bed,M84 ; disable motors
;   createX3G,0
;   celebration,0
;   celebrationSong,Random Song
;   createMB5G,0
;   postProcessing,
;   defaultSpeed,6000
;   outlineUnderspeed,0.8
;   solidInfillUnderspeed,1
;   supportUnderspeed,0.8
;   rapidXYspeed,9600
;   rapidZspeed,9600
;   minBridgingArea,50
;   bridgingExtraInflation,0
;   bridgingExtrusionMultiplier,1
;   bridgingSpeedMultiplier,1
;   filamentDiameter,1.75
;   filamentPricePerKg,38
;   filamentDensity,1.25
;   useMinPrintHeight,0
;   minPrintHeight,0
;   useMaxPrintHeight,0
;   maxPrintHeight,0
;   useDiaphragm,0
;   diaphragmLayerInterval,20
;   robustSlicing,1
;   mergeAllIntoSolid,0
;   onlyRetractWhenCrossingOutline,1
;   retractBetweenLayers,1
;   useRetractionMinTravel,0
;   retractionMinTravel,3
;   retractWhileWiping,0
;   onlyWipeOutlines,1
;   avoidCrossingOutline,0
;   maxMovementDetourFactor,3
;   toolChangeRetractionDistance,12
;   toolChangeExtraRestartDistance,-0.5
;   toolChangeRetractionSpeed,600
;   allowThinWallGapFill,1
;   thinWallAllowedOverlapPercentage,10
;   horizontalSizeCompensation,0
G90
M82
M106 S0
M140 S120
M190 S120
M104 S240 T0
M109 S240 T0
G28               ; home all axes
;M211 S90      ; S<factor in percent> set extrude factor override percentage
G92 E0
G1 E-5.0000 F9600
G1 Z0.575 F9600
; layer 1, Z = 0.375
T0
; tool H0.500 W0.480
; skirt
G1 X-0.241 Y5.300 F9600
G1 Z0.375 F9600
G1 E0.0000 F2880
G92 E0
G1 X-0.842 Y5.293 E0.0600 F4500
G1 X-1.552 Y5.324 E0.1309
G1 X-2.373 Y5.408 E0.2132
G1 X-3.199 Y5.545 E0.2968
G1 X-3.582 Y5.632 E0.3359
G1 X-4.289 Y5.826 E0.4091
G1 X-5.144 Y6.113 E0.4991
G1 X-5.453 Y6.234 E0.5323
G1 X-6.179 Y6.566 E0.6119
G1 X-6.798 Y6.883 E0.6813
G1 X-8.136 Y7.665 E0.8359
G1 X-8.139 Y7.667 E0.8363
G1 X-8.257 Y7.730 E0.8497
G1 X-8.261 Y7.732 E0.8501
G1 X-8.672 Y7.938 E0.8959
G1 X-8.676 Y7.939 E0.8963
G1 X-8.797 Y7.995 E0.9097
G1 X-8.801 Y7.997 E0.9101
G1 X-9.765 Y8.402 E1.0144
G1 X-9.773 Y8.406 E1.0153
G1 X-10.054 Y8.501 E1.0449
G1 X-10.062 Y8.503 E1.0458
G1 X-11.047 Y8.759 E1.1473
G1 X-11.056 Y8.761 E1.1482
G1 X-11.348 Y8.815 E1.1778
G1 X-11.356 Y8.816 E1.1787
G1 X-12.314 Y8.922 E1.2748
G1 X-12.318 Y8.923 E1.2753
G1 X-12.456 Y8.933 E1.2890
G1 X-12.460 Y8.933 E1.2894
G1 X-12.933 Y8.954 E1.3367
G1 X-12.937 Y8.954 E1.3371
G1 X-13.075 Y8.955 E1.3508
G1 X-13.079 Y8.955 E1.3512
G1 X-14.533 Y8.921 E1.4964
G1 X-14.538 Y8.920 E1.4969
G1 X-14.709 Y8.909 E1.5139
G1 X-14.714 Y8.909 E1.5144
G1 X-15.296 Y8.846 E1.5729
G1 X-15.301 Y8.846 E1.5734
G1 X-15.470 Y8.821 E1.5904
G1 X-15.475 Y8.820 E1.5909
G1 X-16.510 Y8.621 E1.6961
G1 X-16.517 Y8.619 E1.6968
G1 X-16.773 Y8.553 E1.7231
G1 X-16.780 Y8.551 E1.7239
G1 X-17.639 Y8.268 E1.8142
G1 X-17.647 Y8.266 E1.8149
G1 X-17.891 Y8.167 E1.8413
G1 X-17.899 Y8.164 E1.8420
G1 X-18.874 Y7.698 E1.9499
G1 X-18.881 Y7.695 E1.9507
G1 X-19.100 Y7.573 E1.9757
G1 X-19.106 Y7.569 E1.9764
G1 X-19.831 Y7.108 E2.0622
G1 X-19.837 Y7.103 E2.0629
G1 X-20.040 Y6.956 E2.0879
G1 X-20.046 Y6.952 E2.0887
G1 X-20.873 Y6.270 E2.1956
G1 X-20.878 Y6.266 E2.1962
G1 X-21.037 Y6.120 E2.2178
G1 X-21.042 Y6.116 E2.2184
G1 X-21.561 Y5.587 E2.2924
G1 X-21.566 Y5.582 E2.2930
G1 X-21.709 Y5.421 E2.3146
G1 X-21.713 Y5.416 E2.3152
G1 X-22.311 Y4.664 E2.4110
G1 X-22.315 Y4.659 E2.4117
G1 X-22.453 Y4.462 E2.4357
G1 X-22.457 Y4.456 E2.4364
G1 X-22.891 Y3.756 E2.5186
G1 X-22.895 Y3.750 E2.5193
G1 X-23.009 Y3.539 E2.5433
G1 X-23.013 Y3.533 E2.5440
G1 X-23.499 Y2.496 E2.6583
G1 X-23.502 Y2.489 E2.6591
G1 X-23.602 Y2.233 E2.6864
G1 X-23.605 Y2.226 E2.6872
G1 X-23.888 Y1.329 E2.7810
G1 X-23.890 Y1.321 E2.7818
G1 X-23.955 Y1.055 E2.8091
G1 X-23.956 Y1.047 E2.8099
G1 X-24.158 Y-0.107 E2.9268
G1 X-24.159 Y-0.114 E2.9276
G1 X-24.187 Y-0.371 E2.9534
G1 X-24.188 Y-0.379 E2.9541
G1 X-24.230 Y-1.265 E3.0427
G1 X-24.230 Y-1.273 E3.0434
G1 X-24.226 Y-1.531 E3.0693
G1 X-24.225 Y-1.539 E3.0700
G1 X-24.148 Y-2.519 E3.1681
G1 X-24.148 Y-2.523 E3.1685
G1 X-24.129 Y-2.682 E3.1844
G1 X-24.129 Y-2.686 E3.1849
G1 X-24.044 Y-3.226 E3.2394
G1 X-24.043 Y-3.231 E3.2399
G1 X-24.012 Y-3.387 E3.2558
G1 X-24.011 Y-3.392 E3.2563
G1 X-18.782 Y-25.408 E5.5141
G1 X-17.927 Y-61.277 E9.0942
G1 X-17.927 Y-61.284 E9.0949
G1 X-17.908 Y-61.515 E9.1181
G1 X-17.907 Y-61.522 E9.1188
G1 X-17.799 Y-62.311 E9.1982
G1 X-17.798 Y-62.317 E9.1989
G1 X-17.753 Y-62.545 E9.2220
G1 X-17.752 Y-62.552 E9.2227
G1 X-17.412 Y-63.889 E9.3603
G1 X-17.409 Y-63.897 E9.3612
G1 X-17.313 Y-64.184 E9.3914
G1 X-17.310 Y-64.192 E9.3923
G1 X-16.910 Y-65.150 E9.4958
G1 X-16.906 Y-65.158 E9.4967
G1 X-16.769 Y-65.428 E9.5269
G1 X-16.765 Y-65.436 E9.5278
G1 X-15.960 Y-66.769 E9.6832
G1 X-15.955 Y-66.778 E9.6842
G1 X-15.759 Y-67.050 E9.7178
G1 X-15.752 Y-67.058 E9.7187
G1 X-15.004 Y-67.936 E9.8338
G1 X-14.998 Y-67.943 E9.8348
G1 X-14.759 Y-68.180 E9.8683
G1 X-14.752 Y-68.187 E9.8693
G1 X-13.636 Y-69.130 E10.0151
G1 X-13.631 Y-69.135 E10.0158
G1 X-13.435 Y-69.281 E10.0402
G1 X-13.429 Y-69.285 E10.0409
G1 X-12.730 Y-69.747 E10.1245
G1 X-12.724 Y-69.750 E10.1252
G1 X-12.512 Y-69.873 E10.1496
G1 X-12.506 Y-69.876 E10.1503
G1 X-11.559 Y-70.351 E10.2561
G1 X-11.552 Y-70.354 E10.2568
G1 X-11.332 Y-70.448 E10.2806
G1 X-11.326 Y-70.451 E10.2813
G1 X-10.554 Y-70.731 E10.3633
G1 X-10.547 Y-70.734 E10.3640
G1 X-10.318 Y-70.802 E10.3879
G1 X-10.311 Y-70.804 E10.3886
G1 X-8.997 Y-71.115 E10.5233
G1 X-8.989 Y-71.116 E10.5241
G1 X-8.729 Y-71.160 E10.5504
G1 X-8.721 Y-71.161 E10.5512
G1 X-7.821 Y-71.255 E10.6416
G1 X-7.813 Y-71.256 E10.6423
G1 X-7.549 Y-71.267 E10.6687
G1 X-7.542 Y-71.267 E10.6694
G1 X10.062 Y-70.843 E12.4264
G1 X10.066 Y-70.843 E12.4268
G1 X10.189 Y-70.836 E12.4392
G1 X10.193 Y-70.836 E12.4395
G1 X10.616 Y-70.800 E12.4819
G1 X10.620 Y-70.799 E12.4823
G1 X10.742 Y-70.785 E12.4946
G1 X10.746 Y-70.785 E12.4950
G1 X11.708 Y-70.645 E12.5920
G1 X11.715 Y-70.644 E12.5926
G1 X11.934 Y-70.600 E12.6149
G1 X11.940 Y-70.599 E12.6156
G1 X12.681 Y-70.407 E12.6919
G1 X12.687 Y-70.405 E12.6926
G1 X12.900 Y-70.338 E12.7148
G1 X12.906 Y-70.336 E12.7155
G1 X13.734 Y-70.023 E12.8038
G1 X13.738 Y-70.022 E12.8042
G1 X13.880 Y-69.962 E12.8196
G1 X13.885 Y-69.960 E12.8201
G1 X14.365 Y-69.736 E12.8729
G1 X14.369 Y-69.734 E12.8734
G1 X14.506 Y-69.664 E12.8888
G1 X14.510 Y-69.662 E12.8892
G1 X15.225 Y-69.261 E12.9711
G1 X15.230 Y-69.258 E12.9716
G1 X15.387 Y-69.160 E12.9901
G1 X15.392 Y-69.157 E12.9906
G1 X15.916 Y-68.798 E13.0540
G1 X15.920 Y-68.795 E13.0546
G1 X16.068 Y-68.684 E13.0730
G1 X16.073 Y-68.680 E13.0736
G1 X16.781 Y-68.094 E13.1653
G1 X16.786 Y-68.090 E13.1659
G1 X16.944 Y-67.945 E13.1874
G1 X16.949 Y-67.941 E13.1880
G1 X17.464 Y-67.415 E13.2615
G1 X17.469 Y-67.410 E13.2621
G1 X17.611 Y-67.249 E13.2836
G1 X17.615 Y-67.245 E13.2842
G1 X18.403 Y-66.252 E13.4106
G1 X18.408 Y-66.246 E13.4114
G1 X18.553 Y-66.039 E13.4366
G1 X18.557 Y-66.033 E13.4374
G1 X19.009 Y-65.292 E13.5239
G1 X19.013 Y-65.286 E13.5247
G1 X19.132 Y-65.062 E13.5499
G1 X19.135 Y-65.056 E13.5507
G1 X19.527 Y-64.191 E13.6455
G1 X19.529 Y-64.186 E13.6459
G1 X19.592 Y-64.033 E13.6625
G1 X19.593 Y-64.028 E13.6630
G1 X19.786 Y-63.493 E13.7197
G1 X19.787 Y-63.488 E13.7202
G1 X19.837 Y-63.330 E13.7367
G1 X19.839 Y-63.326 E13.7372
G1 X20.051 Y-62.544 E13.8180
G1 X20.052 Y-62.539 E13.8185
G1 X20.090 Y-62.373 E13.8355
G1 X20.091 Y-62.368 E13.8360
G1 X20.197 Y-61.794 E13.8943
G1 X20.197 Y-61.789 E13.8948
G1 X20.221 Y-61.620 E13.9118
G1 X20.222 Y-61.615 E13.9123
G1 X20.305 Y-60.781 E13.9959
G1 X20.305 Y-60.778 E13.9963
G1 X20.314 Y-60.651 E14.0090
G1 X20.314 Y-60.647 E14.0093
G1 X20.331 Y-60.212 E14.0528
G1 X20.331 Y-60.208 E14.0531
G1 X20.332 Y-60.081 E14.0658
G1 X20.332 Y-60.078 E14.0662
G1 X19.487 Y-24.488 E17.6183
G1 X23.685 Y-2.103 E19.8909
G1 X23.686 Y-2.097 E19.8915
G1 X23.714 Y-1.891 E19.9122
G1 X23.715 Y-1.885 E19.9128
G1 X23.775 Y-1.176 E19.9839
G1 X23.775 Y-1.169 E19.9845
G1 X23.782 Y-0.962 E20.0052
G1 X23.782 Y-0.956 E20.0058
G1 X23.768 Y-0.033 E20.0979
G1 X23.767 Y-0.027 E20.0985
G1 X23.754 Y0.179 E20.1191
G1 X23.753 Y0.185 E20.1197
G1 X23.671 Y0.888 E20.1904
G1 X23.670 Y0.894 E20.1910
G1 X23.636 Y1.098 E20.2116
G1 X23.635 Y1.104 E20.2122
G1 X23.402 Y2.159 E20.3200
G1 X23.400 Y2.168 E20.3209
G1 X23.312 Y2.461 E20.3515
G1 X23.309 Y2.470 E20.3523
G1 X22.934 Y3.452 E20.4573
G1 X22.930 Y3.460 E20.4582
G1 X22.800 Y3.738 E20.4888
G1 X22.796 Y3.746 E20.4897
G1 X22.047 Y5.071 E20.6415
G1 X22.042 Y5.080 E20.6426
G1 X21.844 Y5.369 E20.6775
G1 X21.838 Y5.377 E20.6785
G1 X21.079 Y6.308 E20.7984
G1 X21.073 Y6.316 E20.7994
G1 X20.829 Y6.567 E20.8343
G1 X20.822 Y6.574 E20.8353
G1 X19.881 Y7.395 E20.9598
G1 X19.876 Y7.399 E20.9605
G1 X19.699 Y7.537 E20.9829
G1 X19.694 Y7.541 E20.9835
G1 X19.063 Y7.980 E21.0603
G1 X19.057 Y7.984 E21.0609
G1 X18.866 Y8.102 E21.0833
G1 X18.861 Y8.105 E21.0840
G1 X17.909 Y8.624 E21.1922
G1 X17.901 Y8.628 E21.1930
G1 X17.632 Y8.751 E21.2225
G1 X17.624 Y8.754 E21.2234
G1 X16.675 Y9.107 E21.3245
G1 X16.666 Y9.110 E21.3253
G1 X16.383 Y9.193 E21.3548
G1 X16.375 Y9.195 E21.3557
G1 X15.114 Y9.467 E21.4844
G1 X15.107 Y9.468 E21.4851
G1 X14.866 Y9.506 E21.5094
G1 X14.859 Y9.507 E21.5101
G1 X14.027 Y9.585 E21.5935
G1 X14.020 Y9.586 E21.5942
G1 X13.777 Y9.594 E21.6185
G1 X13.770 Y9.594 E21.6192
G1 X11.067 Y9.530 E21.8889
G1 X11.050 Y9.528 E21.8906
G1 X10.471 Y9.431 E21.9492
G1 X10.454 Y9.427 E21.9509
G1 X8.530 Y8.814 E22.1525
G1 X8.514 Y8.808 E22.1542
G1 X7.985 Y8.552 E22.2127
G1 X7.971 Y8.544 E22.2145
G1 X5.824 Y7.098 E22.4727
G1 X5.420 Y6.864 E22.5193
G1 X4.713 Y6.498 E22.5987
G1 X3.740 Y6.093 E22.7038
G1 X2.913 Y5.808 E22.7911
G1 X2.545 Y5.705 E22.8293
G1 X1.696 Y5.520 E22.9160
G1 X0.973 Y5.400 E22.9891
G1 X0.386 Y5.336 E23.0481
G1 X-0.241 Y5.300 E23.1107
; tool H0.500 W0.800
; raft
G1 X-0.080 Y0.661 F9600
G92 E0
G1 X-0.916 Y0.652 E0.1391 F1125
G1 X-1.890 Y0.694 E0.3013
G1 X-2.990 Y0.807 E0.4851
G1 X-4.090 Y0.989 E0.6705
G1 X-4.708 Y1.129 E0.7759
G1 X-5.643 Y1.386 E0.9372
G1 X-6.731 Y1.752 E1.1281
G1 X-7.266 Y1.961 E1.2237
G1 X-8.203 Y2.390 E1.3949
G1 X-9.027 Y2.812 E1.5489
G1 X-10.406 Y3.617 E1.8145
G1 X-10.674 Y3.751 E1.8643
G1 X-11.401 Y4.057 E1.9954
G1 X-12.043 Y4.224 E2.1058
G1 X-12.743 Y4.301 E2.2229
G1 X-13.051 Y4.315 E2.2742
G1 X-14.321 Y4.284 E2.4854
G1 X-14.700 Y4.244 E2.5489
G1 X-15.480 Y4.094 E2.6809
G1 X-16.040 Y3.910 E2.7790
G1 X-16.739 Y3.576 E2.9077
G1 X-17.211 Y3.275 E3.0009
G1 X-17.823 Y2.771 E3.1327
G1 X-18.162 Y2.426 E3.2131
G1 X-18.590 Y1.888 E3.3274
G1 X-18.873 Y1.432 E3.4167
G1 X-19.229 Y0.673 E3.5561
G1 X-19.414 Y0.089 E3.6580
G1 X-19.560 Y-0.752 E3.7999
G1 X-19.587 Y-1.329 E3.8961
G1 X-19.530 Y-2.060 E4.0180
G1 X-19.475 Y-2.412 E4.0772
G1 X-14.155 Y-24.810 E7.9056
G1 X-13.292 Y-61.028 E13.9304
G1 X-13.221 Y-61.542 E14.0167
G1 X-12.960 Y-62.569 E14.1929
G1 X-12.699 Y-63.194 E14.3055
G1 X-12.091 Y-64.201 E14.5011
G1 X-11.603 Y-64.773 E14.6261
G1 X-10.752 Y-65.492 E14.8115
G1 X-10.296 Y-65.793 E14.9023
G1 X-9.607 Y-66.139 E15.0305
G1 X-9.104 Y-66.321 E15.1195
G1 X-8.083 Y-66.563 E15.2940
G1 X-7.496 Y-66.624 E15.3922
G1 X9.876 Y-66.206 E18.2820
G1 X10.152 Y-66.183 E18.3280
G1 X10.909 Y-66.072 E18.4553
G1 X11.392 Y-65.948 E18.5382
G1 X12.009 Y-65.715 E18.6479
G1 X12.322 Y-65.569 E18.7053
G1 X12.860 Y-65.268 E18.8078
G1 X13.201 Y-65.034 E18.8767
G1 X13.726 Y-64.600 E18.9899
G1 X14.062 Y-64.257 E19.0697
G1 X14.677 Y-63.484 E19.2340
G1 X14.972 Y-63.001 E19.3281
G1 X15.261 Y-62.364 E19.4445
G1 X15.386 Y-62.015 E19.5061
G1 X15.546 Y-61.427 E19.6074
G1 X15.615 Y-61.053 E19.6707
G1 X15.681 Y-60.395 E19.7806
G1 X15.691 Y-60.112 E19.8277
G1 X14.836 Y-24.111 E25.8164
G1 X19.102 Y-1.369 E29.6644
G1 X19.141 Y-0.907 E29.7415
G1 X19.130 Y-0.231 E29.8539
G1 X19.077 Y0.227 E29.9306
G1 X18.910 Y0.983 E30.0594
G1 X18.665 Y1.624 E30.1734
G1 X18.110 Y2.608 E30.3613
G1 X17.615 Y3.215 E30.4915
G1 X16.933 Y3.809 E30.6420
G1 X16.521 Y4.096 E30.7254
G1 X15.842 Y4.466 E30.8541
G1 X15.223 Y4.697 E30.9640
G1 X14.277 Y4.901 E31.1249
G1 X13.734 Y4.952 E31.2155
G1 X11.528 Y4.900 E31.5825
G1 X10.272 Y4.500 E31.8017
G1 X8.284 Y3.160 E32.2003
