; G-Code generated by Simplify3D(R) Version 3.0.1
; Aug. 1, 2015 at 4:57:54 NACHM.
; Settings Summary
;   processName,ABS Heated
;   applyToModels,HotEndHolder,HotEndHolderClip
;   profileName,OpenBeam KosselPro(2)
;   profileVersion,2015-07-07 14:31:48
;   baseProfile,Default
;   printMaterial,ABS
;   printQuality,Medium
;   printExtruders,
;   extruderName,Extruder 1
;   extruderToolheadNumber,0
;   extruderDiameter,0.4
;   extruderAutoWidth,1
;   extruderWidth,0.48
;   extrusionMultiplier,1
;   extruderUseRetract,1
;   extruderRetractionDistance,6
;   extruderExtraRestartDistance,0
;   extruderRetractionZLift,0.3
;   extruderRetractionSpeed,3600
;   extruderUseCoasting,0
;   extruderCoastingDistance,0.2
;   extruderUseWipe,0
;   extruderWipeDistance,5
;   primaryExtruder,0
;   layerHeight,0.2
;   topSolidLayers,3
;   bottomSolidLayers,3
;   perimeterOutlines,2
;   printPerimetersInsideOut,1
;   startPointOption,2
;   startPointOriginX,0
;   startPointOriginY,0
;   startPointOriginZ,300
;   sequentialIslands,0
;   spiralVaseMode,0
;   firstLayerHeightPercentage,90
;   firstLayerWidthPercentage,100
;   firstLayerUnderspeed,0.5
;   useRaft,1
;   raftExtruder,0
;   raftLayers,3
;   raftOffset,3
;   raftSeparationDistance,0.14
;   raftInfill,85
;   disableRaftBaseLayers,0
;   useSkirt,1
;   skirtExtruder,0
;   skirtLayers,1
;   skirtOutlines,2
;   skirtOffset,4
;   usePrimePillar,0
;   primePillarExtruder,999
;   primePillarWidth,12
;   primePillarLocation,7
;   primePillarSpeedMultiplier,1
;   useOozeShield,0
;   oozeShieldExtruder,999
;   oozeShieldOffset,2
;   oozeShieldOutlines,1
;   oozeShieldSidewallShape,1
;   oozeShieldSidewallAngle,30
;   oozeShieldSpeedMultiplier,1
;   infillExtruder,0
;   internalInfillPattern,Rectilinear
;   externalInfillPattern,Rectilinear
;   infillPercentage,50
;   outlineOverlapPercentage,15
;   infillExtrusionWidthPercentage,100
;   minInfillLength,5
;   infillLayerInterval,1
;   infillAngles,45,-45
;   overlapInfillAngles,0
;   generateSupport,1
;   supportExtruder,0
;   supportInfillPercentage,30
;   supportExtraInflation,0
;   denseSupportLayers,0
;   denseSupportInfillPercentage,70
;   supportLayerInterval,1
;   supportHorizontalPartOffset,0.3
;   supportUpperSeparationLayers,1
;   supportLowerSeparationLayers,1
;   supportType,0
;   supportGridSpacing,4
;   maxOverhangAngle,45
;   supportAngles,0
;   temperatureName,Extruder 1 Temperature,Heated Bed
;   temperatureNumber,0,0
;   temperatureSetpointCount,1,1
;   temperatureSetpointLayers,1,1
;   temperatureSetpointTemperatures,230,100
;   temperatureStabilizeAtStartup,1,1
;   temperatureHeatedBed,0,1
;   temperatureRelayBetweenLayers,0,0
;   temperatureRelayBetweenLoops,0,0
;   fanLayers,1
;   fanSpeeds,0
;   blipFanToFullPower,0
;   adjustSpeedForCooling,1
;   minSpeedLayerTime,15
;   minCoolingSpeedSlowdown,20
;   increaseFanForCooling,0
;   minFanLayerTime,45
;   maxCoolingFanSpeed,100
;   increaseFanForBridging,0
;   bridgingFanSpeed,100
;   use5D,1
;   relativeEdistances,0
;   allowEaxisZeroing,1
;   independentExtruderAxes,0
;   includeM10123,0
;   stickySupport,1
;   applyToolheadOffsets,0
;   gcodeXoffset,0
;   gcodeYoffset,0
;   gcodeZoffset,0
;   overrideMachineDefinition,1
;   machineTypeOverride,1
;   strokeXoverride,240
;   strokeYoverride,240
;   strokeZoverride,275
;   originOffsetXoverride,120
;   originOffsetYoverride,120
;   originOffsetZoverride,0
;   homeXdirOverride,0
;   homeYdirOverride,0
;   homeZdirOverride,1
;   flipXoverride,1
;   flipYoverride,-1
;   flipZoverride,1
;   toolheadOffsets,0,0|0,0|0,0|0,0|0,0|0,0
;   overrideFirmwareConfiguration,1
;   firmwareTypeOverride,RepRap (Marlin/Repetier/Sprinter)
;   GPXconfigOverride,r2
;   baudRateOverride,250000
;   overridePrinterModels,0
;   printerModelsOverride
;   startingGcode,G28 ; home all axes,G29 Z.2; Auto calibration
;   layerChangeGcode,
;   retractionGcode,
;   toolChangeGcode,
;   endingGcode,G28 ; Home all axes,M104 S0 ; turn off extruder,M140 S0 ; turn off bed,M84 ; disable motors
;   createX3G,0
;   celebration,0
;   celebrationSong,Random Song
;   createMB5G,0
;   postProcessing,
;   defaultSpeed,3600
;   outlineUnderspeed,0.5
;   solidInfillUnderspeed,0.8
;   supportUnderspeed,0.8
;   rapidXYspeed,4800
;   rapidZspeed,1000
;   minBridgingArea,50
;   bridgingExtraInflation,0
;   bridgingExtrusionMultiplier,1
;   bridgingSpeedMultiplier,1
;   filamentDiameter,1.75
;   filamentPricePerKg,46
;   filamentDensity,1.25
;   useMinPrintHeight,0
;   minPrintHeight,0
;   useMaxPrintHeight,0
;   maxPrintHeight,0
;   useDiaphragm,0
;   diaphragmLayerInterval,20
;   robustSlicing,1
;   mergeAllIntoSolid,0
;   onlyRetractWhenCrossingOutline,1
;   retractBetweenLayers,1
;   useRetractionMinTravel,0
;   retractionMinTravel,3
;   retractWhileWiping,0
;   onlyWipeOutlines,1
;   avoidCrossingOutline,0
;   maxMovementDetourFactor,3
;   toolChangeRetractionDistance,12
;   toolChangeExtraRestartDistance,-0.5
;   toolChangeRetractionSpeed,600
;   allowThinWallGapFill,1
;   thinWallAllowedOverlapPercentage,10
;   horizontalSizeCompensation,0
G90
M82
M106 S0
M140 S100
M190 S100
M104 S230 T0
M109 S230 T0
G28 ; home all axes
G29 Z.2; Auto calibration
G92 E0
G1 E-6.0000 F3600
G1 Z0.750 F1000
; layer 1, Z = 0.45
T0
; tool H0.500 W0.480
; skirt
G1 X24.229 Y-5.269 F4800
G1 Z0.450 F1000
G1 E0.0000 F1080
G92 E0
G1 X24.237 Y-5.247 E0.0023 F1800
G1 X24.320 Y-4.975 E0.0308
G1 X24.326 Y-4.952 E0.0331
G1 X24.543 Y-4.038 E0.1268
G1 X24.547 Y-4.015 E0.1291
G1 X24.595 Y-3.734 E0.1576
G1 X24.598 Y-3.711 E0.1599
G1 X25.123 Y1.416 E0.6742
G1 X25.125 Y1.440 E0.6765
G1 X25.135 Y1.725 E0.7050
G1 X25.135 Y1.749 E0.7074
G1 X25.108 Y2.690 E0.8013
G1 X25.106 Y2.713 E0.8037
G1 X25.079 Y2.998 E0.8322
G1 X25.076 Y3.021 E0.8345
G1 X24.255 Y8.111 E1.3490
G1 X24.251 Y8.134 E1.3513
G1 X24.187 Y8.413 E1.3798
G1 X24.181 Y8.435 E1.3822
G1 X23.911 Y9.338 E1.4761
G1 X23.903 Y9.360 E1.4785
G1 X23.804 Y9.628 E1.5070
G1 X23.795 Y9.649 E1.5094
G1 X21.683 Y14.353 E2.0239
G1 X21.672 Y14.375 E2.0262
G1 X21.539 Y14.627 E2.0547
G1 X21.527 Y14.647 E2.0570
G1 X21.034 Y15.447 E2.1508
G1 X21.021 Y15.467 E2.1532
G1 X20.855 Y15.699 E2.1816
G1 X20.841 Y15.718 E2.1840
G1 X17.585 Y19.715 E2.6984
G1 X17.570 Y19.733 E2.7007
G1 X17.375 Y19.942 E2.7292
G1 X17.359 Y19.959 E2.7316
G1 X16.972 Y20.324 E2.7846
G1 X17.028 Y20.385 E2.7929
G1 X17.043 Y20.403 E2.7953
G1 X20.241 Y24.447 E3.3097
G1 X20.255 Y24.466 E3.3120
G1 X20.417 Y24.701 E3.3405
G1 X20.429 Y24.721 E3.3429
G1 X20.912 Y25.528 E3.4367
G1 X20.923 Y25.549 E3.4391
G1 X21.053 Y25.803 E3.4676
G1 X21.063 Y25.824 E3.4699
G1 X22.159 Y28.365 E3.7460
G1 X22.159 Y28.365 E3.7460
G1 X23.106 Y30.558 E3.9843
G1 X23.114 Y30.580 E3.9867
G1 X23.210 Y30.849 E4.0152
G1 X23.217 Y30.871 E4.0175
G1 X23.474 Y31.776 E4.1114
G1 X23.480 Y31.799 E4.1137
G1 X23.540 Y32.078 E4.1422
G1 X23.544 Y32.102 E4.1446
G1 X24.688 Y39.909 E4.9320
G1 X24.678 Y40.063 E4.9473
G1 X24.158 Y41.871 E5.1350
G1 X24.085 Y42.007 E5.1504
G1 X19.928 Y46.889 E5.7902
G1 X19.806 Y46.982 E5.8056
G1 X18.104 Y47.784 E5.9933
G1 X17.954 Y47.819 E6.0086
G1 X1.696 Y48.057 E7.6311
G1 X1.553 Y48.030 E7.6456
G1 X-0.092 Y47.358 E7.8229
G1 X-0.213 Y47.277 E7.8374
G1 X-1.454 Y46.024 E8.0134
G1 X-2.833 Y47.390 E8.2071
G1 X-2.948 Y47.467 E8.2209
G1 X-4.506 Y48.122 E8.3895
G1 X-4.641 Y48.150 E8.4033
G1 X-20.742 Y48.386 E10.0100
G1 X-20.893 Y48.355 E10.0253
G1 X-22.618 Y47.604 E10.2131
G1 X-22.743 Y47.514 E10.2284
G1 X-27.041 Y42.756 E10.8683
G1 X-27.118 Y42.622 E10.8836
G1 X-27.690 Y40.830 E11.0713
G1 X-27.705 Y40.677 E11.0867
G1 X-26.790 Y32.839 E11.8741
G1 X-26.786 Y32.816 E11.8764
G1 X-26.735 Y32.535 E11.9049
G1 X-26.730 Y32.512 E11.9072
G1 X-26.499 Y31.600 E12.0011
G1 X-26.493 Y31.577 E12.0035
G1 X-26.405 Y31.306 E12.0320
G1 X-26.397 Y31.283 E12.0343
G1 X-24.495 Y26.493 E12.5486
G1 X-24.485 Y26.472 E12.5509
G1 X-24.363 Y26.215 E12.5793
G1 X-24.352 Y26.194 E12.5817
G1 X-23.896 Y25.374 E12.6753
G1 X-23.884 Y25.354 E12.6776
G1 X-23.729 Y25.115 E12.7060
G1 X-23.716 Y25.096 E12.7084
G1 X-20.642 Y20.959 E13.2226
G1 X-20.627 Y20.941 E13.2250
G1 X-20.441 Y20.722 E13.2536
G1 X-20.425 Y20.705 E13.2560
G1 X-19.766 Y20.026 E13.3503
G1 X-19.749 Y20.010 E13.3527
G1 X-19.536 Y19.817 E13.3813
G1 X-19.518 Y19.802 E13.3837
G1 X-19.217 Y19.564 E13.4220
G1 X-19.222 Y19.560 E13.4226
G1 X-19.868 Y18.874 E13.5166
G1 X-19.884 Y18.857 E13.5190
G1 X-20.066 Y18.636 E13.5475
G1 X-20.081 Y18.618 E13.5499
G1 X-23.100 Y14.435 E14.0646
G1 X-23.113 Y14.416 E14.0669
G1 X-23.265 Y14.174 E14.0954
G1 X-23.277 Y14.153 E14.0978
G1 X-23.723 Y13.324 E14.1918
G1 X-23.734 Y13.303 E14.1941
G1 X-23.853 Y13.043 E14.2226
G1 X-23.862 Y13.022 E14.2250
G1 X-25.693 Y8.204 E14.7392
G1 X-25.701 Y8.182 E14.7416
G1 X-25.784 Y7.909 E14.7700
G1 X-25.790 Y7.887 E14.7723
G1 X-26.007 Y6.973 E14.8660
G1 X-26.011 Y6.950 E14.8684
G1 X-26.059 Y6.669 E14.8968
G1 X-26.062 Y6.646 E14.8991
G1 X-26.587 Y1.519 E15.4134
G1 X-26.589 Y1.495 E15.4157
G1 X-26.599 Y1.210 E15.4442
G1 X-26.599 Y1.186 E15.4466
G1 X-26.572 Y0.245 E15.5405
G1 X-26.570 Y0.222 E15.5429
G1 X-26.543 Y-0.063 E15.5714
G1 X-26.540 Y-0.086 E15.5737
G1 X-25.719 Y-5.176 E16.0882
G1 X-25.715 Y-5.199 E16.0905
G1 X-25.651 Y-5.478 E16.1190
G1 X-25.645 Y-5.500 E16.1214
G1 X-25.375 Y-6.403 E16.2154
G1 X-25.367 Y-6.425 E16.2177
G1 X-25.268 Y-6.693 E16.2462
G1 X-25.259 Y-6.715 E16.2486
G1 X-23.405 Y-10.843 E16.7002
G1 X-24.748 Y-13.111 E16.9632
G1 X-24.787 Y-13.205 E16.9733
G1 X-25.097 Y-14.400 E17.0965
G1 X-25.108 Y-14.501 E17.1066
G1 X-24.460 Y-37.434 E19.3958
G1 X-24.458 Y-37.462 E19.3986
G1 X-24.424 Y-37.793 E19.4318
G1 X-24.420 Y-37.820 E19.4345
G1 X-24.222 Y-38.899 E19.5440
G1 X-24.216 Y-38.926 E19.5468
G1 X-24.132 Y-39.248 E19.5800
G1 X-24.124 Y-39.275 E19.5827
G1 X-23.577 Y-40.853 E19.7494
G1 X-23.258 Y-41.977 E19.8659
G1 X-23.207 Y-42.084 E19.8779
G1 X-23.088 Y-42.255 E19.8986
G1 X-23.043 Y-42.338 E19.9080
G1 X-22.887 Y-42.544 E19.9338
G1 X-22.376 Y-43.279 E20.0231
G1 X-22.293 Y-43.365 E20.0351
G1 X-22.227 Y-43.413 E20.0432
G1 X-22.201 Y-43.447 E20.0474
G1 X-22.119 Y-43.526 E20.0588
G1 X-21.928 Y-43.657 E20.0819
G1 X-21.771 Y-43.853 E20.1070
G1 X-21.689 Y-43.928 E20.1181
G1 X-20.963 Y-44.410 E20.2050
G1 X-20.533 Y-44.813 E20.2638
G1 X-20.457 Y-44.868 E20.2732
G1 X-19.658 Y-45.296 E20.3636
G1 X-18.350 Y-46.254 E20.5254
G1 X-18.243 Y-46.308 E20.5373
G1 X-17.986 Y-46.388 E20.5642
G1 X-17.915 Y-46.436 E20.5728
G1 X-17.814 Y-46.482 E20.5838
G1 X-16.514 Y-46.854 E20.7187
G1 X-16.404 Y-46.868 E20.7298
G1 X-16.308 Y-46.865 E20.7393
G1 X-15.901 Y-46.961 E20.7811
G1 X-15.808 Y-46.970 E20.7904
G1 X-15.544 Y-46.963 E20.8168
G1 X-14.928 Y-47.061 E20.8790
G1 X-14.861 Y-47.065 E20.8858
G1 X16.277 Y-46.147 E23.9941
G1 X16.346 Y-46.139 E24.0010
G1 X16.883 Y-46.018 E24.0559
G1 X17.155 Y-46.010 E24.0831
G1 X17.248 Y-45.995 E24.0924
G1 X17.655 Y-45.874 E24.1348
G1 X17.749 Y-45.871 E24.1442
G1 X17.858 Y-45.851 E24.1553
G1 X19.134 Y-45.404 E24.2902
G1 X19.232 Y-45.352 E24.3013
G1 X19.302 Y-45.299 E24.3100
G1 X19.538 Y-45.210 E24.3351
G1 X19.641 Y-45.151 E24.3470
G1 X19.689 Y-45.112 E24.3532
G1 X20.015 Y-44.977 E24.3885
G1 X20.125 Y-44.906 E24.4015
G1 X21.087 Y-44.005 E24.5330
G1 X21.665 Y-43.651 E24.6007
G1 X21.738 Y-43.592 E24.6100
G1 X22.162 Y-43.148 E24.6713
G1 X22.853 Y-42.628 E24.7576
G1 X22.931 Y-42.548 E24.7687
G1 X23.109 Y-42.297 E24.7994
G1 X23.402 Y-42.057 E24.8372
G1 X23.480 Y-41.967 E24.8491
G1 X23.782 Y-41.478 E24.9064
G1 X24.052 Y-41.224 E24.9434
G1 X24.130 Y-41.119 E24.9564
G1 X24.832 Y-39.687 E25.1156
G1 X24.867 Y-39.561 E25.1286
G1 X25.013 Y-38.006 E25.2845
G1 X25.184 Y-36.726 E25.4133
G1 X25.185 Y-36.711 E25.4148
G1 X25.202 Y-36.535 E25.4325
G1 X25.203 Y-36.520 E25.4339
G1 X25.233 Y-35.937 E25.4923
G1 X25.233 Y-35.922 E25.4937
G1 X25.235 Y-35.744 E25.5114
G1 X25.235 Y-35.730 E25.5129
G1 X24.554 Y-13.051 E27.7769
G1 X24.536 Y-12.950 E27.7870
G1 X24.157 Y-11.774 E27.9103
G1 X24.113 Y-11.683 E27.9205
G1 X22.628 Y-9.482 E28.1854
G1 X24.229 Y-5.269 E28.6351
G1 X23.778 Y-5.106 F4800
G92 E0
G1 X23.780 Y-5.098 E0.0008 F1800
G1 X23.859 Y-4.841 E0.0276
G1 X23.861 Y-4.834 E0.0284
G1 X24.074 Y-3.935 E0.1205
G1 X24.075 Y-3.928 E0.1213
G1 X24.120 Y-3.662 E0.1482
G1 X24.121 Y-3.654 E0.1490
G1 X24.645 Y1.457 E0.6616
G1 X24.645 Y1.465 E0.6624
G1 X24.655 Y1.735 E0.6894
G1 X24.655 Y1.743 E0.6901
G1 X24.628 Y2.668 E0.7825
G1 X24.628 Y2.676 E0.7833
G1 X24.602 Y2.944 E0.8102
G1 X24.601 Y2.952 E0.8110
G1 X23.783 Y8.027 E1.3239
G1 X23.781 Y8.034 E1.3247
G1 X23.721 Y8.298 E1.3516
G1 X23.719 Y8.305 E1.3524
G1 X23.453 Y9.192 E1.4448
G1 X23.451 Y9.200 E1.4456
G1 X23.357 Y9.453 E1.4725
G1 X23.354 Y9.460 E1.4733
G1 X21.248 Y14.150 E1.9862
G1 X21.245 Y14.157 E1.9870
G1 X21.118 Y14.395 E2.0139
G1 X21.115 Y14.402 E2.0147
G1 X20.629 Y15.188 E2.1069
G1 X20.625 Y15.195 E2.1077
G1 X20.469 Y15.415 E2.1346
G1 X20.464 Y15.421 E2.1354
G1 X17.218 Y19.406 E2.6482
G1 X17.213 Y19.412 E2.6490
G1 X17.029 Y19.609 E2.6760
G1 X17.024 Y19.615 E2.6767
G1 X16.349 Y20.251 E2.7692
G1 X16.344 Y20.256 E2.7700
G1 X16.284 Y20.305 E2.7777
G1 X16.480 Y20.495 E2.8049
G1 X16.485 Y20.501 E2.8057
G1 X16.666 Y20.701 E2.8326
G1 X16.671 Y20.707 E2.8334
G1 X19.859 Y24.738 E3.3462
G1 X19.864 Y24.745 E3.3470
G1 X20.017 Y24.967 E3.3739
G1 X20.021 Y24.973 E3.3747
G1 X20.496 Y25.768 E3.4670
G1 X20.499 Y25.775 E3.4678
G1 X20.622 Y26.015 E3.4947
G1 X20.626 Y26.022 E3.4955
G1 X21.719 Y28.555 E3.7708
G1 X22.662 Y30.741 E4.0083
G1 X22.665 Y30.748 E4.0091
G1 X22.755 Y31.002 E4.0360
G1 X22.758 Y31.010 E4.0368
G1 X23.010 Y31.900 E4.1291
G1 X23.012 Y31.908 E4.1299
G1 X23.069 Y32.171 E4.1568
G1 X23.070 Y32.179 E4.1576
G1 X24.206 Y39.928 E4.9391
G1 X24.202 Y39.979 E4.9442
G1 X23.711 Y41.689 E5.1217
G1 X23.687 Y41.734 E5.1268
G1 X19.596 Y46.539 E5.7565
G1 X19.555 Y46.570 E5.7616
G1 X17.946 Y47.328 E5.9391
G1 X17.896 Y47.340 E5.9442
G1 X1.738 Y47.576 E7.5567
G1 X1.690 Y47.567 E7.5615
G1 X0.135 Y46.932 E7.7291
G1 X0.094 Y46.905 E7.7340
G1 X-1.451 Y45.345 E7.9531
G1 X-3.138 Y47.017 E8.1900
G1 X-3.177 Y47.043 E8.1946
G1 X-4.649 Y47.661 E8.3540
G1 X-4.694 Y47.671 E8.3586
G1 X-20.698 Y47.905 E9.9556
G1 X-20.748 Y47.895 E9.9607
G1 X-22.379 Y47.185 E10.1383
G1 X-22.421 Y47.155 E10.1434
G1 X-26.650 Y42.472 E10.7730
G1 X-26.676 Y42.428 E10.7781
G1 X-27.217 Y40.733 E10.9556
G1 X-27.222 Y40.682 E10.9607
G1 X-26.314 Y32.903 E11.7422
G1 X-26.313 Y32.895 E11.7430
G1 X-26.264 Y32.630 E11.7699
G1 X-26.262 Y32.622 E11.7707
G1 X-26.036 Y31.725 E11.8630
G1 X-26.034 Y31.717 E11.8638
G1 X-25.951 Y31.461 E11.8907
G1 X-25.948 Y31.453 E11.8915
G1 X-24.051 Y26.678 E12.4042
G1 X-24.048 Y26.671 E12.4050
G1 X-23.933 Y26.428 E12.4318
G1 X-23.929 Y26.421 E12.4326
G1 X-23.480 Y25.615 E12.5246
G1 X-23.476 Y25.608 E12.5254
G1 X-23.330 Y25.382 E12.5523
G1 X-23.326 Y25.376 E12.5530
G1 X-20.261 Y21.252 E13.0657
G1 X-20.256 Y21.246 E13.0665
G1 X-20.080 Y21.039 E13.0936
G1 X-20.075 Y21.033 E13.0944
G1 X-19.427 Y20.366 E13.1872
G1 X-19.422 Y20.361 E13.1879
G1 X-19.220 Y20.179 E13.2150
G1 X-19.214 Y20.174 E13.2158
G1 X-18.467 Y19.583 E13.3108
G1 X-18.669 Y19.419 E13.3368
G1 X-18.674 Y19.414 E13.3376
G1 X-18.872 Y19.230 E13.3645
G1 X-18.878 Y19.225 E13.3653
G1 X-19.514 Y18.551 E13.4578
G1 X-19.519 Y18.545 E13.4585
G1 X-19.691 Y18.336 E13.4855
G1 X-19.696 Y18.330 E13.4863
G1 X-22.706 Y14.161 E13.9994
G1 X-22.710 Y14.154 E14.0002
G1 X-22.854 Y13.925 E14.0271
G1 X-22.858 Y13.919 E14.0279
G1 X-23.297 Y13.103 E14.1203
G1 X-23.301 Y13.096 E14.1211
G1 X-23.413 Y12.851 E14.1480
G1 X-23.416 Y12.844 E14.1488
G1 X-25.242 Y8.041 E14.6615
G1 X-25.244 Y8.033 E14.6623
G1 X-25.323 Y7.776 E14.6892
G1 X-25.325 Y7.768 E14.6899
G1 X-25.538 Y6.870 E14.7820
G1 X-25.540 Y6.862 E14.7828
G1 X-25.584 Y6.597 E14.8097
G1 X-25.585 Y6.589 E14.8105
G1 X-26.109 Y1.478 E15.3232
G1 X-26.109 Y1.470 E15.3239
G1 X-26.119 Y1.200 E15.3509
G1 X-26.119 Y1.192 E15.3517
G1 X-26.092 Y0.267 E15.4440
G1 X-26.092 Y0.259 E15.4448
G1 X-26.066 Y-0.010 E15.4718
G1 X-26.065 Y-0.017 E15.4725
G1 X-25.247 Y-5.092 E15.9854
G1 X-25.245 Y-5.100 E15.9862
G1 X-25.185 Y-5.363 E16.0131
