; G-Code generated by Simplify3D(R) Version 3.0.1
; Aug. 1, 2015 at 5:03:59 NACHM.
; Settings Summary
;   processName,ABS Heated
;   applyToModels,BlowerFanDuct7
;   profileName,OpenBeam KosselPro(2)
;   profileVersion,2015-07-07 14:31:48
;   baseProfile,Default
;   printMaterial,ABS
;   printQuality,Medium
;   printExtruders,
;   extruderName,Extruder 1
;   extruderToolheadNumber,0
;   extruderDiameter,0.4
;   extruderAutoWidth,1
;   extruderWidth,0.48
;   extrusionMultiplier,1
;   extruderUseRetract,1
;   extruderRetractionDistance,6
;   extruderExtraRestartDistance,0
;   extruderRetractionZLift,0.3
;   extruderRetractionSpeed,3600
;   extruderUseCoasting,0
;   extruderCoastingDistance,0.2
;   extruderUseWipe,0
;   extruderWipeDistance,5
;   primaryExtruder,0
;   layerHeight,0.2
;   topSolidLayers,3
;   bottomSolidLayers,3
;   perimeterOutlines,2
;   printPerimetersInsideOut,1
;   startPointOption,2
;   startPointOriginX,0
;   startPointOriginY,0
;   startPointOriginZ,300
;   sequentialIslands,0
;   spiralVaseMode,0
;   firstLayerHeightPercentage,90
;   firstLayerWidthPercentage,100
;   firstLayerUnderspeed,0.5
;   useRaft,1
;   raftExtruder,0
;   raftLayers,3
;   raftOffset,3
;   raftSeparationDistance,0.14
;   raftInfill,85
;   disableRaftBaseLayers,0
;   useSkirt,1
;   skirtExtruder,0
;   skirtLayers,1
;   skirtOutlines,2
;   skirtOffset,4
;   usePrimePillar,0
;   primePillarExtruder,999
;   primePillarWidth,12
;   primePillarLocation,7
;   primePillarSpeedMultiplier,1
;   useOozeShield,0
;   oozeShieldExtruder,999
;   oozeShieldOffset,2
;   oozeShieldOutlines,1
;   oozeShieldSidewallShape,1
;   oozeShieldSidewallAngle,30
;   oozeShieldSpeedMultiplier,1
;   infillExtruder,0
;   internalInfillPattern,Rectilinear
;   externalInfillPattern,Rectilinear
;   infillPercentage,50
;   outlineOverlapPercentage,15
;   infillExtrusionWidthPercentage,100
;   minInfillLength,5
;   infillLayerInterval,1
;   infillAngles,45,-45
;   overlapInfillAngles,0
;   generateSupport,1
;   supportExtruder,0
;   supportInfillPercentage,30
;   supportExtraInflation,0
;   denseSupportLayers,0
;   denseSupportInfillPercentage,70
;   supportLayerInterval,1
;   supportHorizontalPartOffset,0.3
;   supportUpperSeparationLayers,1
;   supportLowerSeparationLayers,1
;   supportType,0
;   supportGridSpacing,4
;   maxOverhangAngle,45
;   supportAngles,0
;   temperatureName,Extruder 1 Temperature,Heated Bed
;   temperatureNumber,0,0
;   temperatureSetpointCount,1,1
;   temperatureSetpointLayers,1,1
;   temperatureSetpointTemperatures,230,100
;   temperatureStabilizeAtStartup,1,1
;   temperatureHeatedBed,0,1
;   temperatureRelayBetweenLayers,0,0
;   temperatureRelayBetweenLoops,0,0
;   fanLayers,1
;   fanSpeeds,0
;   blipFanToFullPower,0
;   adjustSpeedForCooling,1
;   minSpeedLayerTime,15
;   minCoolingSpeedSlowdown,20
;   increaseFanForCooling,0
;   minFanLayerTime,45
;   maxCoolingFanSpeed,100
;   increaseFanForBridging,0
;   bridgingFanSpeed,100
;   use5D,1
;   relativeEdistances,0
;   allowEaxisZeroing,1
;   independentExtruderAxes,0
;   includeM10123,0
;   stickySupport,1
;   applyToolheadOffsets,0
;   gcodeXoffset,0
;   gcodeYoffset,0
;   gcodeZoffset,0
;   overrideMachineDefinition,1
;   machineTypeOverride,1
;   strokeXoverride,240
;   strokeYoverride,240
;   strokeZoverride,275
;   originOffsetXoverride,120
;   originOffsetYoverride,120
;   originOffsetZoverride,0
;   homeXdirOverride,0
;   homeYdirOverride,0
;   homeZdirOverride,1
;   flipXoverride,1
;   flipYoverride,-1
;   flipZoverride,1
;   toolheadOffsets,0,0|0,0|0,0|0,0|0,0|0,0
;   overrideFirmwareConfiguration,1
;   firmwareTypeOverride,RepRap (Marlin/Repetier/Sprinter)
;   GPXconfigOverride,r2
;   baudRateOverride,250000
;   overridePrinterModels,0
;   printerModelsOverride
;   startingGcode,G28 ; home all axes,G29 Z.2; Auto calibration
;   layerChangeGcode,
;   retractionGcode,
;   toolChangeGcode,
;   endingGcode,G28 ; Home all axes,M104 S0 ; turn off extruder,M140 S0 ; turn off bed,M84 ; disable motors
;   createX3G,0
;   celebration,0
;   celebrationSong,Random Song
;   createMB5G,0
;   postProcessing,
;   defaultSpeed,3600
;   outlineUnderspeed,0.5
;   solidInfillUnderspeed,0.8
;   supportUnderspeed,0.8
;   rapidXYspeed,4800
;   rapidZspeed,1000
;   minBridgingArea,50
;   bridgingExtraInflation,0
;   bridgingExtrusionMultiplier,1
;   bridgingSpeedMultiplier,1
;   filamentDiameter,1.75
;   filamentPricePerKg,46
;   filamentDensity,1.25
;   useMinPrintHeight,0
;   minPrintHeight,0
;   useMaxPrintHeight,0
;   maxPrintHeight,0
;   useDiaphragm,0
;   diaphragmLayerInterval,20
;   robustSlicing,1
;   mergeAllIntoSolid,0
;   onlyRetractWhenCrossingOutline,1
;   retractBetweenLayers,1
;   useRetractionMinTravel,0
;   retractionMinTravel,3
;   retractWhileWiping,0
;   onlyWipeOutlines,1
;   avoidCrossingOutline,0
;   maxMovementDetourFactor,3
;   toolChangeRetractionDistance,12
;   toolChangeExtraRestartDistance,-0.5
;   toolChangeRetractionSpeed,600
;   allowThinWallGapFill,1
;   thinWallAllowedOverlapPercentage,10
;   horizontalSizeCompensation,0
G90
M82
M106 S0
M140 S100
M190 S100
M104 S230 T0
M109 S230 T0
G28 ; home all axes
G29 Z.2; Auto calibration
G92 E0
G1 E-6.0000 F3600
G1 Z0.750 F1000
; layer 1, Z = 0.45
T0
; tool H0.500 W0.480
; skirt
G1 X0.460 Y-19.803 F4800
G1 Z0.450 F1000
G1 E0.0000 F1080
G92 E0
G1 X22.229 Y-25.268 E2.2395 F1800
G1 X22.393 Y-25.271 E2.2559
G1 X24.362 Y-24.855 E2.4567
G1 X24.511 Y-24.786 E2.4731
G1 X29.948 Y-20.545 E3.1611
G1 X30.052 Y-20.417 E3.1775
G1 X30.935 Y-18.609 E3.3783
G1 X30.972 Y-18.449 E3.3947
G1 X30.972 Y18.444 E7.0759
G1 X30.935 Y18.604 E7.0923
G1 X30.054 Y20.411 E7.2929
G1 X29.950 Y20.539 E7.3093
G1 X24.524 Y24.780 E7.9965
G1 X24.376 Y24.849 E8.0128
G1 X22.409 Y25.268 E8.2134
G1 X22.245 Y25.265 E8.2298
G1 X0.482 Y19.847 E10.4677
G1 X0.324 Y19.912 E10.4847
G1 X0.185 Y19.939 E10.4988
G1 X-13.190 Y19.939 E11.8333
G1 X-13.329 Y19.912 E11.8475
G1 X-14.930 Y19.249 E12.0204
G1 X-15.048 Y19.170 E12.0346
G1 X-15.473 Y18.745 E12.0945
G1 X-24.195 Y18.745 E12.9648
G1 X-24.334 Y18.717 E12.9790
G1 X-25.938 Y18.052 E13.1522
G1 X-26.056 Y17.973 E13.1664
G1 X-30.212 Y13.805 E13.7537
G1 X-30.291 Y13.687 E13.7679
G1 X-30.952 Y12.082 E13.9411
G1 X-30.980 Y11.942 E13.9553
G1 X-30.960 Y4.567 E14.6912
G1 X-30.932 Y4.428 E14.7053
G1 X-30.267 Y2.831 E14.8780
G1 X-30.188 Y2.713 E14.8921
G1 X-27.495 Y0.028 E15.2716
G1 X-30.203 Y-2.680 E15.6536
G1 X-30.281 Y-2.798 E15.6678
G1 X-30.944 Y-4.399 E15.8407
G1 X-30.972 Y-4.538 E15.8548
G1 X-30.972 Y-11.910 E16.5904
G1 X-30.944 Y-12.049 E16.6046
G1 X-30.281 Y-13.650 E16.7775
G1 X-30.202 Y-13.768 E16.7917
G1 X-26.049 Y-17.923 E17.3778
G1 X-25.931 Y-18.001 E17.3920
G1 X-24.330 Y-18.665 E17.5649
G1 X-24.191 Y-18.692 E17.5790
G1 X-15.471 Y-18.694 E18.4491
G1 X-15.048 Y-19.117 E18.5088
G1 X-14.930 Y-19.196 E18.5230
G1 X-13.329 Y-19.859 E18.6959
G1 X-13.190 Y-19.887 E18.7101
G1 X0.186 Y-19.887 E20.0446
G1 X0.325 Y-19.859 E20.0588
G1 X0.460 Y-19.803 E20.0734
G1 X0.185 Y-19.398 F4800
G92 E0
G1 X0.423 Y-19.299 E0.0258 F1800
G1 X22.293 Y-24.789 E2.2756
G1 X22.347 Y-24.790 E2.2811
G1 X24.210 Y-24.397 E2.4710
G1 X24.259 Y-24.373 E2.4765
G1 X29.610 Y-20.200 E3.1535
G1 X29.644 Y-20.158 E3.1590
G1 X30.479 Y-18.447 E3.3489
G1 X30.492 Y-18.394 E3.3544
G1 X30.492 Y18.390 E7.0247
G1 X30.479 Y18.443 E7.0301
G1 X29.646 Y20.152 E7.2198
G1 X29.612 Y20.194 E7.2253
G1 X24.272 Y24.368 E7.9015
G1 X24.222 Y24.391 E7.9070
G1 X22.363 Y24.787 E8.0967
G1 X22.308 Y24.786 E8.1022
G1 X0.444 Y19.343 E10.3503
G1 X0.184 Y19.450 E10.3784
G1 X0.138 Y19.459 E10.3831
G1 X-13.142 Y19.459 E11.7082
G1 X-13.189 Y19.450 E11.7129
G1 X-14.703 Y18.823 E11.8764
G1 X-14.742 Y18.797 E11.8812
G1 X-15.274 Y18.265 E11.9562
G1 X-24.148 Y18.265 E12.8417
G1 X-24.194 Y18.256 E12.8464
G1 X-25.710 Y17.627 E13.0102
G1 X-25.749 Y17.600 E13.0149
G1 X-29.839 Y13.500 E13.5927
G1 X-29.865 Y13.460 E13.5975
G1 X-30.490 Y11.943 E13.7613
G1 X-30.500 Y11.896 E13.7660
G1 X-30.480 Y4.615 E14.4924
G1 X-30.471 Y4.569 E14.4972
G1 X-29.842 Y3.059 E14.6604
G1 X-29.816 Y3.020 E14.6651
G1 X-26.816 Y0.028 E15.0878
G1 X-29.830 Y-2.986 E15.5131
G1 X-29.856 Y-3.025 E15.5178
G1 X-30.483 Y-4.539 E15.6813
G1 X-30.492 Y-4.585 E15.6860
G1 X-30.492 Y-11.863 E16.4122
G1 X-30.483 Y-11.909 E16.4169
G1 X-29.856 Y-13.423 E16.5804
G1 X-29.830 Y-13.462 E16.5851
G1 X-25.743 Y-17.550 E17.1618
G1 X-25.704 Y-17.576 E17.1665
G1 X-24.190 Y-18.203 E17.3300
G1 X-24.144 Y-18.212 E17.3347
G1 X-15.272 Y-18.214 E18.2199
G1 X-14.742 Y-18.744 E18.2947
G1 X-14.703 Y-18.771 E18.2995
G1 X-13.189 Y-19.398 E18.4630
G1 X-13.142 Y-19.407 E18.4677
G1 X0.138 Y-19.407 E19.7928
G1 X0.185 Y-19.398 E19.7975
; tool H0.500 W0.800
; raft
G1 X-0.847 Y-14.767 F4800
G92 E0
G1 X-0.390 Y-14.311 E0.1073 F450
G1 X22.310 Y-20.009 E3.9995
G1 X25.852 Y-17.247 E4.7465
G1 X25.852 Y17.244 E10.4824
G1 X22.317 Y20.007 E11.2284
G1 X-0.383 Y14.355 E15.1186
G1 X-0.847 Y14.819 E15.2278
G1 X-12.157 Y14.819 E17.1088
G1 X-13.352 Y13.625 E17.3897
G1 X-23.161 Y13.625 E19.0209
G1 X-25.857 Y10.922 E19.6559
G1 X-25.843 Y5.611 E20.5390
G1 X-23.150 Y2.925 E21.1716
G1 X-19.255 Y2.925 E21.8194
G1 X-19.246 Y-2.874 E22.7838
G1 X-23.158 Y-2.876 E23.4345
G1 X-25.852 Y-5.570 E24.0681
G1 X-25.852 Y-10.878 E24.9508
G1 X-23.158 Y-13.573 E25.5845
G1 X-13.350 Y-13.574 E27.2156
G1 X-12.157 Y-14.767 E27.4960
G1 X-0.847 Y-14.767 E29.3770
G1 X-0.925 Y-13.714 F4800
G92 E0
G1 X-12.079 Y-13.714 E1.8548 F450
G1 X-13.018 Y-12.774 E2.0758
G1 X-22.826 Y-12.773 E3.7069
G1 X-24.170 Y-11.429 E4.0230
G1 X25.052 Y-11.429 E12.2087
G1 X25.052 Y-13.714 E12.5888
G1 X0.520 Y-13.714 E16.6685
G1 X9.625 Y-16.000 E18.2296
G1 X25.052 Y-16.000 E20.7951
G1 X25.052 Y-16.856 E20.9375
G1 X23.219 Y-18.286 E21.3240
G1 X18.729 Y-18.286 E22.0707
G1 X23.220 Y18.286 F4800
G92 E0
G1 X18.716 Y18.286 E0.7490 F450
G1 X9.535 Y16.000 E2.3224
G1 X25.052 Y16.000 E4.9028
G1 X25.052 Y13.714 E5.2829
G1 X0.354 Y13.714 E9.3901
G1 X-0.628 Y13.470 E9.5585
G1 X-0.873 Y13.714 E9.6160
G1 X-12.131 Y13.714 E11.4883
G1 X-13.020 Y12.825 E11.6974
G1 X-22.829 Y12.825 E13.3286
G1 X-24.222 Y11.429 E13.6565
G1 X25.052 Y11.429 E21.8507
G1 X25.052 Y9.143 E22.2308
G1 X-25.052 Y9.143 E30.5632
G1 X-25.046 Y6.857 E30.9433
G1 X25.052 Y6.857 E39.2746
G1 X25.052 Y4.571 E39.6547
G1 X-23.668 Y4.571 E47.7568
G1 X-22.819 Y3.725 E47.9561
G1 X-18.456 Y3.725 E48.6817
G1 X-18.454 Y2.286 E48.9211
G1 X25.052 Y2.286 E56.1561
G1 X25.052 Y0.000 E56.5362
G1 X-18.450 Y0.000 E63.7705
G1 X-18.447 Y-2.286 E64.1507
G1 X25.052 Y-2.286 E71.3845
G1 X25.052 Y-4.571 E71.7646
G1 X-23.722 Y-4.571 E79.8758
G1 X-25.052 Y-5.901 E80.1885
G1 X-25.052 Y-6.857 E80.3474
G1 X25.052 Y-6.857 E88.6797
G1 X25.052 Y-9.143 E89.0598
G1 X-25.052 Y-9.143 E97.3921
G92 E0
G1 E-6.0000 F3600
G1 Z1.250 F1000
; layer 2, Z = 0.95
; raft
G1 X-25.852 Y-10.878 F4800
G1 Z0.950 F1000
G1 E0.0000 F3600
G92 E0
G1 X-23.158 Y-13.573 E0.6337 F900
G1 X-13.350 Y-13.574 E2.2647
G1 X-12.157 Y-14.767 E2.5452
G1 X-0.847 Y-14.767 E4.4262
G1 X-0.390 Y-14.311 E4.5335
G1 X22.310 Y-20.009 E8.4257
G1 X25.852 Y-17.247 E9.1727
G1 X25.852 Y17.244 E14.9086
G1 X22.317 Y20.007 E15.6546
G1 X-0.383 Y14.355 E19.5448
G1 X-0.847 Y14.819 E19.6540
G1 X-12.157 Y14.819 E21.5349
G1 X-13.352 Y13.625 E21.8159
G1 X-23.161 Y13.625 E23.4471
G1 X-25.857 Y10.922 E24.0820
G1 X-25.843 Y5.611 E24.9652
G1 X-23.150 Y2.925 E25.5978
G1 X-19.255 Y2.925 E26.2455
G1 X-19.246 Y-2.874 E27.2100
G1 X-23.158 Y-2.876 E27.8607
G1 X-25.852 Y-5.570 E28.4943
G1 X-25.852 Y-10.878 E29.3770
G1 X-25.052 Y-9.143 F4800
G92 E0
G1 X25.052 Y-9.143 E8.3323 F900
G1 X25.052 Y-6.857 E8.7124
G1 X-25.052 Y-6.857 E17.0447
G1 X-25.052 Y-5.901 E17.2036
G1 X-23.722 Y-4.571 E17.5164
G1 X25.052 Y-4.571 E25.6275
G1 X25.052 Y-2.286 E26.0077
G1 X-18.447 Y-2.286 E33.2415
G1 X-18.450 Y0.000 E33.6216
G1 X25.052 Y0.000 E40.8560
G1 X25.052 Y2.286 E41.2361
G1 X-18.454 Y2.286 E48.4710
G1 X-18.456 Y3.725 E48.7104
G1 X-22.819 Y3.725 E49.4360
G1 X-23.668 Y4.571 E49.6353
G1 X25.052 Y4.571 E57.7374
G1 X25.052 Y6.857 E58.1175
G1 X-25.046 Y6.857 E66.4488
G1 X-25.052 Y9.143 E66.8290
G1 X25.052 Y9.143 E75.1613
G1 X25.052 Y11.429 E75.5414
G1 X-24.222 Y11.429 E83.7356
G1 X-22.829 Y12.825 E84.0636
G1 X-13.020 Y12.825 E85.6947
G1 X-12.131 Y13.714 E85.9039
G1 X-0.873 Y13.714 E87.7761
G1 X-0.628 Y13.470 E87.8337
G1 X0.354 Y13.714 E88.0021
G1 X25.052 Y13.714 E92.1092
G1 X25.052 Y16.000 E92.4894
G1 X9.535 Y16.000 E95.0698
G1 X18.716 Y18.286 E96.6432
G1 X23.220 Y18.286 E97.3921
G1 X18.729 Y-18.286 F4800
G92 E0
G1 X23.219 Y-18.286 E0.7466 F900
G1 X25.052 Y-16.856 E1.1331
G1 X25.052 Y-16.000 E1.2755
G1 X9.625 Y-16.000 E3.8411
G1 X0.520 Y-13.714 E5.4022
G1 X25.052 Y-13.714 E9.4819
G1 X25.052 Y-11.429 E9.8620
G1 X-24.170 Y-11.429 E18.0477
G1 X-22.826 Y-12.773 E18.3638
G1 X-13.018 Y-12.774 E19.9949
G1 X-12.079 Y-13.714 E20.2159
G1 X-0.925 Y-13.714 E22.0707
G92 E0
G1 E-6.0000 F3600
G1 Z1.626 F1000
; layer 3, Z = 1.32647
; tool H0.376 W0.640
; raft
G1 X-20.480 Y2.845 F4800
G1 Z1.326 F1000
G1 E0.0000 F3600
G92 E0
G1 X-20.480 Y13.705 E1.0879 F1800
G1 X-21.760 Y13.705 E1.2161
G1 X-21.760 Y2.845 E2.3039
G1 X-23.040 Y2.845 E2.4322
G1 X-23.040 Y13.705 E3.5200
G1 X-23.194 Y13.705 E3.5355
G1 X-24.320 Y12.576 E3.6952
G1 X-24.320 Y3.979 E4.5563
G1 X-25.600 Y5.256 E4.7374
G1 X-25.600 Y11.293 E5.3422
G1 X-25.600 Y-5.205 F4800
G92 E0
G1 X-25.600 Y-11.243 E0.6049 F1800
G1 X-24.320 Y-12.524 E0.7862
G1 X-24.320 Y-3.924 E1.6476
G1 X-23.191 Y-2.796 E1.8075
G1 X-23.040 Y-2.796 E1.8227
G1 X-23.040 Y-13.653 E2.9103
G1 X-21.760 Y-13.653 E3.0385
G1 X-21.760 Y-2.795 E4.1261
G1 X-20.480 Y-2.795 E4.2544
G1 X-20.480 Y-13.653 E5.3421
G1 X-19.200 Y-13.653 E5.4703
G1 X-19.200 Y13.705 E8.2108
G1 X-17.920 Y13.705 E8.3390
G1 X-17.920 Y-13.654 E11.0796
G1 X-16.640 Y-13.654 E11.2078
G1 X-16.640 Y13.705 E13.9484
G1 X-15.360 Y13.705 E14.0766
G1 X-15.360 Y-13.654 E16.8172
G1 X-14.080 Y-13.654 E16.9454
G1 X-14.080 Y13.705 E19.6860
G1 X-13.385 Y13.705 E19.7556
G1 X-12.800 Y14.290 E19.8385
G1 X-12.800 Y-14.237 E22.6961
G1 X-12.191 Y-14.847 E22.7825
G1 X-11.520 Y-14.847 E22.8497
G1 X-11.520 Y14.899 E25.8294
G1 X-10.240 Y14.899 E25.9576
G1 X-10.240 Y-14.847 E28.9373
G1 X-8.960 Y-14.847 E29.0656
G1 X-8.960 Y14.899 E32.0453
G1 X-7.680 Y14.899 E32.1735
G1 X-7.680 Y-14.847 E35.1533
G1 X-6.400 Y-14.847 E35.2815
G1 X-6.400 Y14.899 E38.2612
G1 X-5.120 Y14.899 E38.3894
G1 X-5.120 Y-14.847 E41.3692
G1 X-3.840 Y-14.847 E41.4974
G1 X-3.840 Y14.899 E44.4771
G1 X-2.560 Y14.899 E44.6053
G1 X-2.560 Y-14.847 E47.5851
G1 X-1.280 Y-14.847 E47.7133
G1 X-1.280 Y14.899 E50.6930
G1 X-0.814 Y14.899 E50.7397
G1 X-0.358 Y14.444 E50.8043
G1 X0.000 Y14.533 E50.8412
G1 X0.000 Y-14.491 E53.7486
G1 X1.280 Y-14.812 E53.8808
G1 X1.280 Y14.852 E56.8523
G1 X2.560 Y15.170 E56.9845
G1 X2.560 Y-15.134 E60.0201
G1 X3.840 Y-15.455 E60.1523
G1 X3.840 Y15.489 E63.2520
G1 X5.120 Y15.808 E63.3841
G1 X5.120 Y-15.776 E66.5479
G1 X6.400 Y-16.098 E66.6801
G1 X6.400 Y16.126 E69.9081
G1 X7.680 Y16.445 E70.0402
G1 X7.680 Y-16.419 E73.3323
G1 X8.960 Y-16.740 E73.4645
G1 X8.960 Y16.764 E76.8206
G1 X10.240 Y17.082 E76.9528
G1 X10.240 Y-17.062 E80.3730
G1 X11.520 Y-17.383 E80.5052
G1 X11.520 Y17.401 E83.9896
G1 X12.800 Y17.720 E84.1217
G1 X12.800 Y-17.704 E87.6702
G1 X14.080 Y-18.026 E87.8024
G1 X14.080 Y18.038 E91.4150
G1 X15.360 Y18.357 E91.5472
G1 X15.360 Y-18.347 E95.2239
G1 X16.640 Y-18.668 E95.3561
G1 X16.640 Y18.676 E99.0969
G1 X17.920 Y18.994 E99.2291
G1 X17.920 Y-18.990 E103.0340
G1 X19.200 Y-19.311 E103.1662
G1 X19.200 Y19.313 E107.0353
G1 X20.480 Y19.632 E107.1674
G1 X20.480 Y-19.632 E111.1005
G1 X21.760 Y-19.954 E111.2327
G1 X21.760 Y19.950 E115.2300
G1 X22.336 Y20.094 E115.2894
G1 X23.040 Y19.543 E115.3790
G1 X23.040 Y-19.541 E119.2942
G1 X24.320 Y-18.543 E119.4568
G1 X24.320 Y18.543 E123.1717
G1 X25.600 Y17.542 E123.3345
G1 X25.600 Y-17.545 E126.8492
G92 E0
G1 E-6.0000 F3600
G1 Z1.849 F1000
; layer 4, Z = 1.54869
; tool H0.222 W0.400
; raft
G1 X21.815 Y18.027 F4800
G1 Z1.549 F1000
G1 E0.0000 F3600
G92 E0
G1 X21.985 Y17.981 E0.0065 F3600
G1 X22.934 Y17.240 E0.0510
G1 X20.873 Y17.792 E0.1298
